data/profiles/FOGRA39L.ti3
CTI3

KEYWORD "DEVICE_CLASS"
DEVICE_CLASS "OUTPUT"
KEYWORD "COLOR_REP"
COLOR_REP "CMYK_LAB"

ORIGINATOR "Fogra, www.fogra.org"
DESCRIPTOR "FOGRA39L"
CREATED    "December 2006"
INSTRUMENTATION "D50, 2 degree, geometry 45/0, no polarisation filter, white backing, according to ISO 13655"
PRINT_CONDITIONS "Offset printing, according to ISO 12647-2:2004/Amd 1, OFCOM, paper type 1 or 2 = coated art, 115 g/m2, tone value increase curves A (CMY) and B (K)"
NUMBER_OF_FIELDS 11
BEGIN_DATA_FORMAT
SAMPLE_ID CMYK_C CMYK_M CMYK_Y CMYK_K XYZ_X XYZ_Y XYZ_Z LAB_L LAB_A LAB_B
END_DATA_FORMAT
NUMBER_OF_SETS 1617
BEGIN_DATA
1        0     0     0     0   84.48   87.62   74.57   95.00    0.00   -2.00
2        0    10     0     0   77.89   77.75   68.26   90.67    5.90   -3.86
3        0    20     0     0   71.44   68.34   61.53   86.18   12.01   -5.21
4        0    30     0     0   65.03   59.18   54.42   81.39   18.70   -6.19
5        0    40     0     0   58.85   50.57   47.38   76.42   25.78   -6.91
6        0    55     0     0   50.29   38.82   37.12   68.62   37.72   -7.37
7        0    70     0     0   42.93   29.06   27.82   60.84   50.59   -6.74
8        0    85     0     0   37.03   21.51   20.24   53.50   63.84   -5.37
9        0   100     0     0   33.03   16.79   15.01   48.00   74.00   -3.00
10      10     0     0     0   75.23   79.55   73.29   91.48   -2.97   -6.96
11      10    10     0     0   69.05   70.36   66.38   87.17    2.62   -8.14
12      10    20     0     0   63.29   61.86   59.96   82.84    8.51   -9.42
13      10    30     0     0   57.78   53.70   53.20   78.29   15.13  -10.24
14      10    40     0     0   52.10   45.71   46.38   73.36   22.10  -11.01
15      10    55     0     0   44.54   35.05   36.38   65.79   33.97  -11.22
16      10    70     0     0   37.92   26.16   27.53   58.19   46.54  -10.82
17      10    85     0     0   32.67   19.34   20.21   51.08   59.43   -9.48
18      10   100     0     0   29.11   15.02   15.16   45.66   69.64   -7.40
19      20     0     0     0   66.20   71.39   71.35   87.68   -5.78  -11.80
20      20    10     0     0   60.80   63.32   64.70   83.61   -0.61  -12.70
21      20    20     0     0   55.70   55.67   58.32   79.43    5.10  -13.64
22      20    30     0     0   50.89   48.42   51.93   75.09   11.45  -14.35
23      20    40     0     0   45.84   41.14   45.27   70.28   18.36  -14.99
24      20    55     0     0   39.08   31.49   35.81   62.92   29.85  -15.36
25      20    70     0     0   33.22   23.42   27.23   55.50   42.34  -14.95
26      20    85     0     0   28.42   17.12   20.13   48.41   55.13  -13.93
27      20   100     0     0   25.23   13.20   15.18   43.06   65.24  -11.94
28      30     0     0     0   57.73   63.86   69.37   83.89   -9.15  -16.55
29      30    10     0     0   52.98   56.50   63.03   79.90   -3.85  -17.50
30      30    20     0     0   48.46   49.60   56.75   75.82    1.75  -18.24
31      30    30     0     0   44.15   43.08   50.44   71.61    7.76  -18.70
32      30    40     0     0   40.01   36.83   44.30   67.15   14.55  -19.22
33      30    55     0     0   33.97   28.09   35.04   59.97   25.68  -19.35
34      30    70     0     0   28.79   20.80   26.81   52.73   37.95  -19.00
35      30    85     0     0   24.66   15.20   19.97   45.90   50.57  -17.92
36      30   100     0     0   21.81   11.63   15.22   40.61   60.61  -16.25
37      40     0     0     0   49.39   56.18   67.19   79.72  -12.53  -21.75
38      40    10     0     0   45.45   49.96   61.21   76.05   -7.61  -22.37
39      40    20     0     0   41.64   43.88   54.97   72.15   -2.02  -22.71
40      40    30     0     0   37.79   37.98   48.98   68.01    3.80  -23.26
41      40    40     0     0   34.16   32.42   43.15   63.69   10.33  -23.76
42      40    55     0     0   28.99   24.69   34.20   56.77   21.28  -23.66
43      40    70     0     0   24.53   18.22   26.34   49.76   33.37  -23.32
44      40    85     0     0   21.03   13.33   19.94   43.26   45.52  -22.41
45      40   100     0     0   18.46   10.09   15.30   38.01   55.38  -20.94
46      55     0     0     0   38.22   45.92   63.77   73.50  -18.47  -29.25
47      55    10     0     0   35.12   40.73   58.19   69.98  -13.54  -29.79
48      55    20     0     0   32.13   35.74   52.59   66.32   -8.20  -30.20
49      55    30     0     0   29.29   31.07   46.92   62.57   -2.52  -30.25
50      55    40     0     0   26.31   26.32   41.18   58.34    3.88  -30.48
51      55    55     0     0   22.44   20.15   33.11   52.00   14.43  -30.27
52      55    70     0     0   18.95   14.87   25.85   45.46   25.79  -29.88
53      55    85     0     0   16.09   10.74   19.75   39.13   37.65  -29.13
54      55   100     0     0   14.10    8.06   15.45   34.11   47.46  -28.04
55      70     0     0     0   28.34   36.45   60.10   66.86  -24.73  -37.10
56      70    10     0     0   26.14   32.44   55.00   63.70  -19.96  -37.30
57      70    20     0     0   23.94   28.55   49.80   60.39  -14.98  -37.34
58      70    30     0     0   21.76   24.73   44.76   56.81   -9.42  -37.58
59      70    40     0     0   19.58   20.99   39.44   52.94   -3.28  -37.52
60      70    55     0     0   16.69   16.07   32.11   47.07    6.80  -37.29
61      70    70     0     0   14.04   11.79   25.17   40.88   17.88  -36.58
62      70    85     0     0   11.90    8.48   19.53   34.96   29.33  -35.88
63      70   100     0     0   10.47    6.38   15.62   30.36   38.74  -34.92
64      85     0     0     0   20.55   28.74   56.53   60.55  -31.32  -44.34
65      85    10     0     0   19.01   25.62   51.81   57.68  -26.57  -44.25
66      85    20     0     0   17.48   22.65   47.23   54.71  -21.83  -44.15
67      85    30     0     0   15.87   19.59   42.41   51.37  -16.35  -44.06
68      85    40     0     0   14.38   16.75   37.69   47.95  -10.47  -43.79
69      85    55     0     0   12.16   12.70   30.76   42.31   -0.59  -43.41
70      85    70     0     0   10.28    9.39   24.50   36.73    9.83  -42.53
71      85    85     0     0    8.68    6.71   19.26   31.13   20.93  -41.89
72      85   100     0     0    7.62    5.02   15.67   26.78   30.18  -41.20
73     100     0     0     0   15.02   22.93   52.85   55.00  -37.00  -50.00
74     100    10     0     0   13.89   20.44   48.55   52.34  -32.47  -49.78
75     100    20     0     0   12.68   17.96   44.08   49.45  -27.87  -49.46
76     100    30     0     0   11.60   15.62   39.81   46.47  -22.46  -49.16
77     100    40     0     0   10.49   13.38   35.45   43.34  -17.03  -48.62
78     100    55     0     0    8.93   10.24   29.15   38.26   -7.66  -47.84
79     100    70     0     0    7.60    7.58   23.63   33.10    2.71  -47.18
80     100    85     0     0    6.42    5.45   18.85   27.97   13.12  -46.45
81     100   100     0     0    5.67    4.10   15.67   24.00   22.00  -46.00
82       0     0    10     0   82.49   86.06   65.10   94.34   -0.94    5.42
83       0    10    10     0   75.87   76.28   59.17   89.99    4.75    3.71
84       0    20    10     0   69.54   66.99   53.37   85.50   10.90    2.01
85       0    30    10     0   63.47   58.18   47.49   80.84   17.53    0.59
86       0    40    10     0   57.37   49.51   41.24   75.77   24.99   -0.51
87       0    55    10     0   49.19   38.12   32.42   68.11   37.00   -1.48
88       0    70    10     0   42.22   28.66   24.51   60.48   50.03   -1.61
89       0    85    10     0   36.64   21.41   17.93   53.40   63.02   -0.59
90       0   100    10     0   32.71   16.71   13.27   47.89   73.34    1.38
91      10     0    10     0   73.22   78.03   63.44   90.79   -4.15    0.89
92      10    10    10     0   67.29   69.11   57.65   86.56    1.46   -0.67
93      10    20    10     0   61.82   60.80   52.12   82.27    7.56   -2.19
94      10    30    10     0   56.43   52.84   46.38   77.78   14.01   -3.38
95      10    40    10     0   50.83   44.81   40.31   72.77   21.29   -4.48
96      10    55    10     0   43.65   34.53   31.81   65.38   33.14   -5.26
97      10    70    10     0   37.29   25.86   24.23   57.91   45.74   -5.52
98      10    85    10     0   32.23   19.19   17.88   50.91   58.60   -4.76
99      10   100    10     0   28.87   14.99   13.43   45.63   68.89   -2.97
100     20     0    10     0   64.45   70.20   61.94   87.10   -7.21   -4.03
101     20    10    10     0   59.11   62.06   56.18   82.95   -1.74   -5.37
102     20    20    10     0   54.10   54.49   50.64   78.74    4.02   -6.63
103     20    30    10     0   49.44   47.39   45.14   74.44   10.37   -7.65
104     20    40    10     0   44.75   40.39   39.50   69.74   17.54   -8.63
105     20    55    10     0   38.29   31.04   31.25   62.54   28.97   -9.29
106     20    70    10     0   32.64   23.15   23.99   55.22   41.48   -9.71
107     20    85    10     0   28.08   17.04   17.75   48.31   54.21   -8.97
108     20   100    10     0   25.07   13.22   13.48   43.09   64.43   -7.45
109     30     0    10     0   55.89   62.52   60.15   83.19  -10.64   -9.00
110     30    10    10     0   51.47   55.53   54.84   79.35   -5.38  -10.16
111     30    20    10     0   47.13   48.73   49.37   75.28    0.40  -11.16
112     30    30    10     0   42.98   42.34   44.02   71.10    6.51  -12.04
113     30    40    10     0   38.80   36.03   38.49   66.54   13.35  -12.81
114     30    55    10     0   33.18   27.65   30.65   59.57   24.62  -13.48
115     30    70    10     0   28.21   20.53   23.60   52.43   36.95  -13.79
116     30    85    10     0   24.25   15.08   17.69   45.74   49.51  -13.26
117     30   100    10     0   21.56   11.60   13.51   40.57   59.63  -11.88
118     40     0    10     0   47.77   55.17   58.28   79.14  -14.43  -14.10
119     40    10    10     0   43.99   48.97   53.13   75.43   -9.19  -15.07
120     40    20    10     0   40.29   43.06   47.90   71.59   -3.75  -15.83
121     40    30    10     0   36.67   37.29   42.83   67.50    2.36  -16.78
122     40    40    10     0   33.20   31.86   37.55   63.23    8.95  -17.26
123     40    55    10     0   28.18   24.25   29.93   56.33   20.03  -17.94
124     40    70    10     0   24.00   18.02   23.23   49.52   32.11  -18.12
125     40    85    10     0   20.55   13.15   17.56   42.99   44.39  -17.71
126     40   100    10     0   18.22   10.06   13.57   37.94   54.43  -16.59
127     55     0    10     0   36.60   44.80   55.19   72.76  -20.56  -21.89
128     55    10    10     0   33.68   39.78   50.43   69.31  -15.60  -22.65
129     55    20    10     0   30.95   35.07   45.76   65.81  -10.26  -23.28
130     55    30    10     0   28.26   30.51   41.05   62.09   -4.46  -23.85
131     55    40    10     0   25.40   25.86   35.99   57.90    1.99  -24.27
132     55    55    10     0   21.66   19.78   29.05   51.58   12.65  -24.71
133     55    70    10     0   18.42   14.64   22.76   45.13   24.44  -24.79
134     55    85    10     0   15.73   10.63   17.51   38.95   36.37  -24.56
135     55   100    10     0   13.86    8.05   13.75   34.08   46.09  -23.71
136     70     0    10     0   26.89   35.55   52.08   66.17  -27.53  -29.89
137     70    10    10     0   24.84   31.68   47.82   63.08  -22.74  -30.41
138     70    20    10     0   22.84   27.95   43.48   59.84  -17.53  -30.80
139     70    30    10     0   20.79   24.24   39.00   56.32  -11.91  -31.11
140     70    40    10     0   18.75   20.56   34.50   52.46   -5.40  -31.52
141     70    55    10     0   15.96   15.71   28.05   46.60    4.69  -31.67
142     70    70    10     0   13.56   11.64   22.28   40.64   15.90  -31.64
143     70    85    10     0   11.55    8.42   17.37   34.84   27.32  -31.33
144     70   100    10     0   10.18    6.35   13.92   30.28   36.87  -30.74
145     85     0    10     0   19.29   28.00   48.87   59.89  -34.67  -37.13
146     85    10    10     0   17.87   25.00   44.96   57.08  -29.91  -37.38
147     85    20    10     0   16.43   22.02   40.98   54.05  -24.75  -37.62
148     85    30    10     0   14.98   19.15   36.97   50.86  -19.38  -37.77
149     85    40    10     0   13.54   16.27   32.86   47.33  -13.09  -37.97
150     85    55    10     0   11.56   12.47   27.07   41.96   -3.31  -38.01
151     85    70    10     0    9.81    9.22   21.74   36.40    7.59  -37.90
152     85    85    10     0    8.36    6.67   17.22   31.03   18.56  -37.55
153     85   100    10     0    7.34    4.98   13.94   26.68   27.93  -36.99
154    100     0    10     0   13.86   22.25   45.58   54.30  -41.10  -42.91
155    100    10    10     0   12.85   19.87   42.11   51.69  -36.36  -43.13
156    100    20    10     0   11.81   17.53   38.34   48.92  -31.48  -43.00
157    100    30    10     0   10.81   15.27   34.80   46.01  -26.15  -43.09
158    100    40    10     0    9.79   13.04   31.03   42.82  -20.26  -42.96
159    100    55    10     0    8.37    9.99   25.60   37.82  -10.58  -42.61
160    100    70    10     0    7.14    7.43   20.93   32.76   -0.19  -42.55
161    100    85    10     0    6.07    5.37   16.77   27.76   10.33  -42.16
162    100   100    10     0    5.33    4.00   13.84   23.67   19.51  -41.92
163      0     0    20     0   80.53   84.39   55.96   93.62   -1.62   13.27
164      0    10    20     0   74.09   74.92   50.81   89.35    3.86   11.48
165      0    20    20     0   68.13   66.01   45.78   85.00   10.00    9.79
166      0    30    20     0   61.99   57.08   40.65   80.23   16.78    7.94
167      0    40    20     0   56.26   48.73   35.49   75.28   24.36    6.41
168      0    55    20     0   48.32   37.62   27.93   67.74   36.21    4.98
169      0    70    20     0   41.68   28.41   21.23   60.26   49.36    4.26
170      0    85    20     0   36.07   21.18   15.57   53.14   62.25    4.49
171      0   100    20     0   32.36   16.63   11.61   47.79   72.52    5.95
172     10     0    20     0   71.15   76.33   54.30   90.01   -5.13    8.80
173     10    10    20     0   65.45   67.65   49.42   85.83    0.51    6.96
174     10    20    20     0   60.13   59.61   44.61   81.63    6.38    5.38
175     10    30    20     0   54.96   51.83   39.86   77.18   12.96    3.70
176     10    40    20     0   49.68   44.03   34.77   72.25   20.46    2.19
177     10    55    20     0   42.80   34.05   27.57   65.00   32.26    0.87
178     10    70    20     0   36.67   25.55   20.98   57.60   45.01    0.20
179     10    85    20     0   31.75   18.99   15.48   50.67   57.88    0.46
180     10   100    20     0   28.55   14.91   11.72   45.50   68.14    1.68
181     20     0    20     0   62.51   68.67   52.72   86.34   -8.38    4.18
182     20    10    20     0   57.23   60.68   47.87   82.20   -3.09    2.49
183     20    20    20     0   52.65   53.46   43.34   78.14    2.87    0.93
184     20    30    20     0   48.22   46.59   38.78   73.93    9.27   -0.46
185     20    40    20     0   43.49   39.54   33.97   69.14   16.47   -2.01
186     20    55    20     0   37.29   30.39   26.92   61.99   28.14   -3.24
187     20    70    20     0   31.96   22.77   20.67   54.83   40.71   -3.95
188     20    85    20     0   27.75   16.96   15.46   48.22   53.33   -3.74
189     20   100    20     0   24.80   13.18   11.80   43.04   63.53   -2.80
190     30     0    20     0   54.20   61.32   51.30   82.55  -12.12   -0.80
191     30    10    20     0   49.82   54.33   46.80   78.66   -6.79   -2.36
192     30    20    20     0   45.69   47.72   42.21   74.65   -0.92   -3.69
193     30    30    20     0   41.77   41.51   37.82   70.53    5.33   -5.02
194     30    40    20     0   37.74   35.37   33.27   66.03   12.17   -6.33
195     30    55    20     0   32.25   27.06   26.49   59.03   23.67   -7.59
196     30    70    20     0   27.60   20.24   20.42   52.10   35.98   -8.16
197     30    85    20     0   23.84   14.94   15.36   45.55   48.52   -8.10
198     30   100    20     0   21.29   11.56   11.84   40.51   58.63   -7.29
199     40     0    20     0   46.01   53.82   49.59   78.36  -15.99   -6.11
200     40    10    20     0   42.47   47.93   45.35   74.78  -10.85   -7.32
201     40    20    20     0   38.81   41.97   41.11   70.85   -5.18   -8.83
202     40    30    20     0   35.50   36.50   36.78   66.90    1.03   -9.86
203     40    40    20     0   32.20   31.22   32.43   62.69    7.72  -10.84
204     40    55    20     0   27.42   23.84   25.92   55.92   18.79  -11.96
205     40    70    20     0   23.46   17.76   20.11   49.20   31.12  -12.53
206     40    85    20     0   20.23   13.09   15.34   42.90   43.24  -12.61
207     40   100    20     0   17.96   10.02   11.92   37.88   53.28  -12.04
208     55     0    20     0   35.04   43.71   46.99   72.04  -22.64  -14.01
209     55    10    20     0   32.32   38.90   43.18   68.68  -17.64  -15.19
210     55    20    20     0   29.57   34.10   39.05   65.04  -12.12  -16.15
211     55    30    20     0   27.07   29.73   35.19   61.42   -6.31  -17.07
212     55    40    20     0   24.42   25.23   30.92   57.30    0.42  -17.83
213     55    55    20     0   20.89   19.31   25.05   51.05   11.27  -18.82
214     55    70    20     0   17.83   14.35   19.74   44.73   23.06  -19.45
215     55    85    20     0   15.27   10.46   15.22   38.66   34.93  -19.62
216     55   100    20     0   13.59    8.01   12.08   34.00   44.67  -19.20
217     70     0    20     0   25.51   34.63   44.34   65.46  -30.11  -22.17
218     70    10    20     0   23.58   30.82   40.74   62.36  -25.06  -22.99
219     70    20    20     0   21.64   27.12   37.15   59.08  -19.80  -23.85
220     70    30    20     0   19.83   23.67   33.50   55.75  -14.16  -24.39
221     70    40    20     0   17.85   20.03   29.67   51.87   -7.55  -25.23
222     70    55    20     0   15.29   15.39   24.27   46.17    2.70  -25.84
223     70    70    20     0   13.07   11.41   19.39   40.26   14.33  -26.43
224     70    85    20     0   11.16    8.29   15.17   34.58   25.64  -26.53
225     70   100    20     0    9.85    6.26   12.21   30.07   35.13  -26.37
226     85     0    20     0   18.13   27.31   41.88   59.26  -37.93  -29.80
227     85    10    20     0   16.74   24.26   38.51   56.35  -32.90  -30.41
228     85    20    20     0   15.45   21.43   35.20   53.42  -27.62  -30.89
229     85    30    20     0   14.09   18.61   31.80   50.22  -22.07  -31.39
230     85    40    20     0   12.77   15.85   28.29   46.78  -15.73  -31.75
231     85    55    20     0   10.95   12.20   23.39   41.54   -5.91  -32.19
232     85    70    20     0    9.35    9.06   18.96   36.11    5.14  -32.67
233     85    85    20     0    7.99    6.56   15.07   30.78   16.37  -32.82
234     85   100    20     0    7.06    4.96   12.26   26.62   25.46  -32.45
235    100     0    20     0   12.79   21.58   38.89   53.58  -44.93  -35.70
236    100    10    20     0   11.88   19.30   35.89   51.04  -40.18  -35.96
237    100    20    20     0   10.96   17.07   32.93   48.35  -35.21  -36.30
238    100    30    20     0   10.00   14.84   29.83   45.41  -29.78  -36.62
239    100    40    20     0    9.05   12.61   26.59   42.18  -23.56  -36.83
240    100    55    20     0    7.81    9.77   22.20   37.42  -13.88  -37.02
241    100    70    20     0    6.70    7.28   18.18   32.43   -3.20  -37.32
242    100    85    20     0    5.76    5.30   14.77   27.58    7.66  -37.59
243    100   100    20     0    5.08    3.98   12.22   23.61   16.65  -37.53
244      0     0    30     0   78.60   82.89   47.04   92.97   -2.61   22.02
245      0    10    30     0   72.45   73.46   42.94   88.67    3.41   19.57
246      0    20    30     0   66.47   64.59   38.69   84.27    9.49   17.48
247      0    30    30     0   60.64   56.05   34.48   79.64   16.14   15.37
248      0    40    30     0   54.93   47.79   30.06   74.69   23.57   13.52
249      0    55    30     0   47.50   37.04   23.79   67.31   35.81   11.51
250      0    70    30     0   40.93   27.96   18.03   59.85   48.84   10.30
251      0    85    30     0   35.61   20.97   13.24   52.92   61.68   10.14
252      0   100    30     0   32.22   16.65   10.02   47.82   71.89   11.00
253     10     0    30     0   69.33   74.88   45.81   89.34   -6.09   17.23
254     10    10    30     0   63.93   66.44   41.83   85.22   -0.29   15.03
255     10    20    30     0   58.72   58.49   37.81   81.01    5.67   13.05
256     10    30    30     0   53.62   50.82   33.67   76.57   12.15   11.24
257     10    40    30     0   48.62   43.30   29.42   71.76   19.71    9.47
258     10    55    30     0   41.84   33.42   23.39   64.50   31.55    7.40
259     10    70    30     0   36.02   25.19   17.91   57.26   44.33    6.09
260     10    85    30     0   31.30   18.83   13.29   50.49   57.06    5.80
261     10   100    30     0   28.24   14.86   10.09   45.44   67.23    6.63
262     20     0    30     0   60.78   67.37   44.43   85.69   -9.61   12.60
263     20    10    30     0   56.12   59.90   40.68   81.78   -4.01   10.57
264     20    20    30     0   51.58   52.70   36.88   77.70    2.01    8.63
265     20    30    30     0   46.97   45.66   32.80   73.33    8.40    6.94
266     20    40    30     0   42.40   38.79   28.67   68.60   15.57    5.24
267     20    55    30     0   36.59   29.99   22.98   61.65   27.32    3.25
268     20    70    30     0   31.46   22.54   17.73   54.59   39.93    1.91
269     20    85    30     0   27.22   16.72   13.26   47.91   52.53    1.45
270     20   100    30     0   24.45   13.11   10.15   42.92   62.52    2.12
271     30     0    30     0   52.51   60.00   43.11   81.84  -13.40    7.58
272     30    10    30     0   48.21   53.05   39.28   77.90   -7.90    5.72
273     30    20    30     0   44.30   46.72   35.63   74.01   -2.17    4.02
274     30    30    30     0   40.49   40.63   31.91   69.92    4.08    2.41
275     30    40    30     0   36.72   34.66   28.08   65.48   11.22    0.84
276     30    55    30     0   31.48   26.62   22.52   58.62   22.68   -1.10
277     30    70    30     0   27.02   19.93   17.47   51.76   35.13   -2.38
278     30    85    30     0   23.43   14.78   13.18   45.33   47.66   -2.78
279     30   100    30     0   20.99   11.51   10.20   40.43   57.56   -2.34
280     40     0    30     0   44.51   52.75   41.82   77.73  -17.56    2.13
281     40    10    30     0   41.00   46.77   38.15   74.04  -12.12    0.57
282     40    20    30     0   37.59   41.14   34.66   70.27   -6.60   -1.05
283     40    30    30     0   34.29   35.69   31.02   66.28   -0.40   -2.49
284     40    40    30     0   31.21   30.55   27.40   62.13    6.52   -3.81
285     40    55    30     0   26.65   23.34   22.08   55.42   17.83   -5.76
286     40    70    30     0   22.85   17.46   17.25   48.83   29.98   -6.94
287     40    85    30     0   19.77   12.90   13.20   42.61   42.19   -7.54
288     40   100    30     0   17.61    9.94   10.25   37.74   52.07   -7.14
289     55     0    30     0   33.67   42.76   39.57   71.39  -24.58   -5.88
290     55    10    30     0   31.01   37.91   36.31   67.95  -19.30   -7.40
291     55    20    30     0   28.54   33.40   33.01   64.49  -13.71   -8.62
292     55    30    30     0   26.07   29.06   29.72   60.84   -7.90   -9.83
293     55    40    30     0   23.59   24.74   26.23   56.83   -1.20  -10.95
294     55    55    30     0   20.21   18.94   21.33   50.62    9.87  -12.55
295     55    70    30     0   17.39   14.19   17.00   44.50   21.70  -13.81
296     55    85    30     0   14.93   10.37   13.18   38.51   33.58  -14.55
297     55   100    30     0   13.28    7.96   10.39   33.89   43.15  -14.24
298     70     0    30     0   24.20   33.69   37.28   64.71  -32.52  -14.32
299     70    10    30     0   22.42   30.05   34.38   61.70  -27.46  -15.43
300     70    20    30     0   20.67   26.55   31.36   58.56  -22.14  -16.33
301     70    30    30     0   18.90   23.11   28.40   55.18  -16.37  -17.45
302     70    40    30     0   17.06   19.59   25.13   51.37   -9.69  -18.41
303     70    55    30     0   14.64   15.01   20.70   45.65    1.00  -19.85
