data/profiles/FOGRA28L.ti3
CTI3

KEYWORD "DEVICE_CLASS"
DEVICE_CLASS "OUTPUT"
KEYWORD "COLOR_REP"
COLOR_REP "CMYK_LAB"

ORIGINATOR 	 "FOGRA, www.fogra.org"
DESCRIPTOR       "FOGRA28"
CREATED          "September 2003"
INSTRUMENTATION  "GRETAGMACBETH SpectroChart and SpectroScan, D50, 2 degree, geometry 45/0, no polarisation filter, white backing"
MEASUREMENT_SOURCE "GAS-FILLED TUNGSTEN"
PRINT_CONDITIONS "Offset printing according to ISO/DIS 12647-2:2004, OFCOM,  paper type 3 = low weight coated web offset, 60 g/m2, screen ruling 60 cm-1, positive-acting plates, see readme"
NUMBER_OF_FIELDS 11
BEGIN_DATA_FORMAT
SAMPLE_ID CMYK_C CMYK_M CMYK_Y CMYK_K XYZ_X XYZ_Y XYZ_Z LAB_L LAB_A LAB_B
END_DATA_FORMAT
NUMBER_OF_SETS 1485
BEGIN_DATA
1        0     0     0     0   78.26   81.53   65.62   92.37   -0.70    1.52
2        0    10     0     0   71.37   71.37   58.85   87.66    5.46    0.02
3        0    20     0     0   64.68   61.72   52.23   82.76   11.99   -1.45
4        0    30     0     0   58.43   52.86   45.83   77.79   18.85   -2.71
5        0    40     0     0   52.70   44.85   39.70   72.79   26.08   -3.64
6        0    55     0     0   44.84   34.09   30.76   65.03   38.11   -4.24
7        0    70     0     0   38.41   25.58   23.07   57.63   50.53   -3.83
8        0    85     0     0   33.61   19.51   17.29   51.28   61.87   -2.80
9        0   100     0     0   30.14   15.43   13.33   46.21   71.16   -1.66
10      10     0     0     0   68.85   73.45   63.80   88.66   -4.23   -3.13
11      10    10     0     0   62.81   64.35   57.30   84.15    1.78   -4.46
12      10    20     0     0   56.94   55.68   50.93   79.43    8.16   -5.77
13      10    30     0     0   51.46   47.73   44.79   74.65   14.84   -6.87
14      10    40     0     0   46.41   40.50   38.90   69.83   21.92   -7.70
15      10    55     0     0   39.47   30.76   30.32   62.31   33.70   -8.25
16      10    70     0     0   33.73   23.01   22.91   55.08   45.91   -7.93
17      10    85     0     0   29.42   17.48   17.33   48.86   57.07   -7.06
18      10   100     0     0   26.31   13.76   13.47   43.88   66.22   -6.09
19      20     0     0     0   60.04   65.76   61.97   84.87   -7.84   -7.89
20      20    10     0     0   54.79   57.64   55.73   80.54   -1.97   -9.05
21      20    20     0     0   49.70   49.93   49.63   76.03    4.23  -10.17
22      20    30     0     0   44.92   42.82   43.73   71.43   10.76  -11.13
23      20    40     0     0   40.53   36.36   38.09   66.80   17.66  -11.83
24      20    55     0     0   34.42   27.59   29.85   59.51   29.21  -12.32
25      20    70     0     0   29.36   20.58   22.74   52.49   41.18  -12.08
26      20    85     0     0   25.55   15.57   17.36   46.41   52.14  -11.36
27      20   100     0     0   22.78   12.20   13.62   41.53   61.15  -10.55
28      30     0     0     0   51.86   58.51   60.14   81.02  -11.56  -12.73
29      30    10     0     0   47.37   51.35   54.18   76.89   -5.86  -13.69
30      30    20     0     0   42.99   44.51   48.32   72.57    0.20  -14.63
31      30    30     0     0   38.89   38.22   42.68   68.18    6.55  -15.42
32      30    40     0     0   35.07   32.46   37.27   63.72   13.30  -16.02
33      30    55     0     0   29.77   24.62   29.39   56.70   24.58  -16.44
34      30    70     0     0   25.34   18.32   22.57   49.89   36.30  -16.24
35      30    85     0     0   21.99   13.81   17.38   43.95   47.05  -15.65
36      30   100     0     0   19.56   10.77   13.77   39.19   55.89  -14.98
37      40     0     0     0   44.37   51.75   58.33   77.13  -15.41  -17.61
38      40    10     0     0   40.55   45.46   52.62   73.19   -9.85  -18.38
39      40    20     0     0   36.83   39.46   47.02   69.09   -3.96  -19.13
40      40    30     0     0   33.32   33.89   41.62   64.88    2.25  -19.77
41      40    40     0     0   30.07   28.82   36.46   60.62    8.81  -20.24
42      40    55     0     0   25.50   21.84   28.92   53.86   19.83  -20.57
43      40    70     0     0   21.68   16.23   22.38   47.27   31.29  -20.39
44      40    85     0     0   18.76   12.19   17.41   41.52   41.80  -19.89
45      40   100     0     0   16.65    9.48   13.92   36.89   50.46  -19.34
46      55     0     0     0   34.31   42.46   55.63   71.19  -21.49  -25.06
47      55    10     0     0   31.39   37.37   50.30   67.55  -16.15  -25.54
48      55    20     0     0   28.53   32.47   45.07   63.73  -10.48  -26.03
49      55    30     0     0   25.84   27.94   40.03   59.83   -4.52  -26.42
50      55    40     0     0   23.32   23.76   35.21   55.85    1.81  -26.70
51      55    55     0     0   19.78   18.04   28.19   49.54   12.39  -26.83
52      55    70     0     0   16.78   13.39   22.10   43.34   23.41  -26.62
53      55    85     0     0   14.50   10.04   17.43   37.91   33.51  -26.18
54      55   100     0     0   12.83    7.78   14.14   33.52   41.83  -25.72
55      70     0     0     0   25.93   34.44   53.03   65.31  -27.74  -32.42
56      70    10     0     0   23.74   30.34   48.05   61.94  -22.58  -32.65
57      70    20     0     0   21.60   26.40   43.17   58.42  -17.12  -32.86
58      70    30     0     0   19.57   22.75   38.47   54.81  -11.37  -33.00
59      70    40     0     0   17.68   19.38   33.98   51.12   -5.29  -33.08
60      70    55     0     0   15.00   14.73   27.46   45.26    4.86  -32.98
61      70    70     0     0   12.74   10.96   21.80   39.51   15.38  -32.64
62      70    85     0     0   10.99    8.22   17.44   34.44   25.01  -32.18
63      70   100     0     0    9.73    6.38   14.35   30.35   32.95  -31.73
64      85     0     0     0   19.59   28.11   50.75   59.99  -33.59  -39.08
65      85    10     0     0   17.95   24.79   46.07   56.87  -28.58  -39.07
66      85    20     0     0   16.35   21.60   41.49   53.61  -23.29  -39.04
67      85    30     0     0   14.82   18.63   37.08   50.26  -17.73  -38.97
68      85    40     0     0   13.40   15.90   32.89   46.85  -11.88  -38.84
69      85    55     0     0   11.39   12.12   26.79   41.41   -2.13  -38.50
70      85    70     0     0    9.68    9.05   21.51   36.07    7.92  -37.99
71      85    85     0     0    8.37    6.82   17.45   31.40   17.08  -37.44
72      85   100     0     0    7.41    5.31   14.54   27.61   24.64  -36.94
73     100     0     0     0   15.10   23.39   48.86   55.48  -38.56  -44.73
74     100    10     0     0   13.84   20.64   44.43   52.55  -33.67  -44.52
75     100    20     0     0   12.62   18.01   40.09   49.51  -28.52  -44.30
76     100    30     0     0   11.45   15.56   35.92   46.39  -23.13  -44.03
77     100    40     0     0   10.36   13.29   31.96   43.20  -17.46  -43.74
78     100    55     0     0    8.82   10.17   26.23   38.14   -8.08  -43.16
79     100    70     0     0    7.51    7.62   21.27   33.19    1.55  -42.49
80     100    85     0     0    6.51    5.78   17.44   28.84   10.30  -41.82
81     100   100     0     0    5.78    4.52   14.69   25.33   17.49  -41.25
82       0     0    10     0   76.26   79.87   56.22   91.63   -1.51    9.55
83       0    10    10     0   69.57   69.89   50.57   86.94    4.72    7.59
84       0    20    10     0   63.09   60.46   44.97   82.09   11.28    5.74
85       0    30    10     0   57.06   51.82   39.56   77.17   18.17    4.09
86       0    40    10     0   51.53   44.02   34.35   72.24   25.41    2.80
87       0    55    10     0   43.99   33.57   26.73   64.62   37.42    1.62
88       0    70    10     0   37.81   25.29   20.10   57.36   49.77    1.57
89       0    85    10     0   33.21   19.40   15.10   51.15   61.02    2.22
90       0   100    10     0   29.89   15.42   11.66   46.21   70.23    3.07
91      10     0    10     0   66.92   71.83   54.66   87.89   -5.10    4.76
92      10    10    10     0   61.11   62.96   49.23   83.42    0.96    3.03
93      10    20    10     0   55.44   54.50   43.83   78.75    7.37    1.37
94      10    30    10     0   50.17   46.75   38.65   74.03   14.09   -0.11
95      10    40    10     0   45.31   39.72   33.63   69.27   21.18   -1.28
96      10    55    10     0   38.64   30.26   26.31   61.88   32.96   -2.38
97      10    70    10     0   33.14   22.73   19.92   54.79   45.12   -2.50
98      10    85    10     0   29.02   17.35   15.09   48.70   56.21   -2.00
99      10   100    10     0   26.04   13.72   11.76   43.83   65.30   -1.31
100     20     0    10     0   58.22   64.24   53.07   84.09   -8.81   -0.09
101     20    10    10     0   53.18   56.33   47.86   79.80   -2.89   -1.63
102     20    20    10     0   48.29   48.83   42.69   75.34    3.35   -3.08
103     20    30    10     0   43.70   41.90   37.70   70.80    9.92   -4.39
104     20    40    10     0   39.48   35.62   32.90   66.23   16.84   -5.44
105     20    55    10     0   33.64   27.11   25.87   59.07   28.40   -6.45
106     20    70    10     0   28.79   20.30   19.74   52.17   40.34   -6.63
107     20    85    10     0   25.14   15.43   15.09   46.22   51.25   -6.26
108     20   100    10     0   22.49   12.14   11.86   41.44   60.21   -5.73
109     30     0    10     0   50.15   57.09   51.49   80.23  -12.68   -5.01
110     30    10    10     0   45.86   50.14   46.49   76.15   -6.93   -6.32
111     30    20    10     0   41.65   43.48   41.53   71.88   -0.83   -7.59
112     30    30    10     0   37.73   37.37   36.77   67.55    5.57   -8.72
113     30    40    10     0   34.07   31.76   32.15   63.15   12.34   -9.63
114     30    55    10     0   29.01   24.16   25.43   56.25   23.64  -10.55
115     30    70    10     0   24.78   18.04   19.56   49.55   35.36  -10.76
116     30    85    10     0   21.58   13.66   15.08   43.73   46.08  -10.51
117     30   100    10     0   19.25   10.70   11.96   39.07   54.89  -10.12
118     40     0    10     0   42.76   50.44   49.91   76.34  -16.73   -9.95
119     40    10    10     0   39.12   44.33   45.12   72.45  -11.11  -11.06
120     40    20    10     0   35.57   38.51   40.38   68.39   -5.18  -12.11
121     40    30    10     0   32.21   33.10   35.80   64.24    1.07  -13.08
122     40    40    10     0   29.11   28.17   31.41   60.04    7.67  -13.86
123     40    55    10     0   24.77   21.41   24.98   53.39   18.73  -14.66
124     40    70    10     0   21.12   15.96   19.36   46.92   30.21  -14.88
125     40    85    10     0   18.35   12.04   15.07   41.28   40.71  -14.72
126     40   100    10     0   16.33    9.40   12.06   36.74   49.35  -14.43
127     55     0    10     0   32.82   41.31   47.52   70.39  -23.27  -17.46
128     55    10    10     0   30.06   36.37   43.05   66.80  -17.87  -18.26
129     55    20    10     0   27.34   31.62   38.61   63.03  -12.14  -19.03
130     55    30    10     0   24.79   27.23   34.35   59.19   -6.13  -19.72
131     55    40    10     0   22.41   23.18   30.25   55.26    0.25  -20.30
132     55    55    10     0   19.07   17.64   24.28   49.05   10.90  -20.89
133     55    70    10     0   16.23   13.12   19.05   42.95   21.96  -21.06
134     55    85    10     0   14.06    9.87   15.04   37.62   32.10  -20.97
135     55   100    10     0   12.49    7.68   12.21   33.31   40.44  -20.78
136     70     0    10     0   24.57   33.44   45.19   64.52  -30.06  -24.83
137     70    10    10     0   22.51   29.47   41.01   61.19  -24.83  -25.35
138     70    20    10     0   20.50   25.66   36.88   57.71  -19.32  -25.84
139     70    30    10     0   18.60   22.12   32.91   54.16  -13.51  -26.28
140     70    40    10     0   16.82   18.86   29.10   50.52   -7.37  -26.63
141     70    55    10     0   14.31   14.37   23.57   44.75    2.87  -26.98
142     70    70    10     0   12.19   10.71   18.74   39.09   13.48  -27.04
143     70    85    10     0   10.56    8.06   15.01   34.12   23.19  -26.92
144     70   100    10     0    9.37    6.28   12.36   30.10   31.19  -26.74
145     85     0    10     0   18.35   27.24   43.12   59.20  -36.52  -31.46
146     85    10    10     0   16.82   24.03   39.20   56.12  -31.45  -31.74
147     85    20    10     0   15.33   20.95   35.33   52.90  -26.09  -31.98
148     85    30    10     0   13.91   18.08   31.62   49.59  -20.47  -32.19
149     85    40    10     0   12.59   15.44   28.07   46.23  -14.55  -32.34
150     85    55    10     0   10.73   11.79   22.93   40.88   -4.68  -32.45
151     85    70    10     0    9.15    8.82   18.44   35.64    5.50  -32.35
152     85    85    10     0    7.94    6.67   14.97   31.04   14.78  -32.14
153     85   100    10     0    7.06    5.21   12.50   27.32   22.43  -31.93
154    100     0    10     0   13.97   22.63   41.40   54.69  -42.06  -37.07
155    100    10    10     0   12.81   19.97   37.70   51.80  -37.11  -37.15
156    100    20    10     0   11.68   17.43   34.04   48.79  -31.89  -37.18
157    100    30    10     0   10.61   15.06   30.54   45.72  -26.42  -37.20
158    100    40    10     0    9.61   12.88   27.20   42.58  -20.69  -37.18
159    100    55    10     0    8.20    9.87   22.38   37.60  -11.15  -37.06
160    100    70    10     0    7.01    7.41   18.18   32.73   -1.36  -36.80
161    100    85    10     0    6.10    5.63   14.94   28.46    7.54  -36.50
162    100   100    10     0    5.43    4.42   12.61   25.02   14.87  -36.22
163      0     0    20     0   74.29   78.18   47.53   90.86   -2.25   17.82
164      0    10    20     0   67.80   68.43   42.83   86.22    4.02   15.49
165      0    20    20     0   61.54   59.21   38.21   81.41   10.63   13.20
166      0    30    20     0   55.72   50.79   33.71   76.55   17.54   11.16
167      0    40    20     0   50.39   43.19   29.35   71.69   24.79    9.46
168      0    55    20     0   43.12   33.02   22.92   64.18   36.77    7.73
169      0    70    20     0   37.21   25.00   17.32   57.08   49.05    7.13
170      0    85    20     0   32.82   19.29   13.06   51.02   60.20    7.35
171      0   100    20     0   29.64   15.42   10.12   46.21   69.33    7.87
172     10     0    20     0   65.06   70.24   46.21   87.12   -5.91   12.92
173     10    10    20     0   59.45   61.58   41.69   82.69    0.19   10.85
174     10    20    20     0   53.98   53.32   37.23   78.06    6.65    8.76
175     10    30    20     0   48.90   45.77   32.90   73.40   13.40    6.92
176     10    40    20     0   44.23   38.93   28.71   68.70   20.50    5.36
177     10    55    20     0   37.82   29.74   22.54   61.43   32.27    3.72
178     10    70    20     0   32.56   22.44   17.14   54.49   44.37    3.07
179     10    85    20     0   28.63   17.22   13.03   48.54   55.37    3.16
180     10   100    20     0   25.78   13.70   10.18   43.79   64.39    3.53
181     20     0    20     0   56.46   62.73   44.87   83.30   -9.71    7.95
182     20    10    20     0   51.61   55.03   40.52   79.06   -3.76    6.09
183     20    20    20     0   46.91   47.72   36.24   74.65    2.53    4.25
184     20    30    20     0   42.51   40.99   32.08   70.17    9.13    2.59
185     20    40    20     0   38.46   34.88   28.06   65.66   16.08    1.18
186     20    55    20     0   32.85   26.61   22.13   58.61   27.63   -0.35
187     20    70    20     0   28.23   20.01   16.95   51.85   39.53   -1.03
188     20    85    20     0   24.74   15.29   13.00   46.03   50.38   -1.08
189     20   100    20     0   22.22   12.09   10.23   41.36   59.29   -0.85
190     30     0    20     0   48.50   55.69   43.52   79.44  -13.72    2.94
191     30    10    20     0   44.38   48.92   39.35   75.40   -7.93    1.33
192     30    20    20     0   40.36   42.46   35.24   71.18   -1.78   -0.31
193     30    30    20     0   36.60   36.51   31.25   66.91    4.66   -1.76
194     30    40    20     0   33.10   31.07   27.40   62.57   11.46   -3.04
195     30    55    20     0   28.26   23.69   21.72   55.77   22.77   -4.45
196     30    70    20     0   24.23   17.76   16.76   49.21   34.47   -5.14
197     30    85    20     0   21.18   13.51   12.96   43.52   45.15   -5.30
198     30   100    20     0   18.97   10.63   10.29   38.95   53.92   -5.20
199     40     0    20     0   41.20   49.15   42.16   75.54  -17.97   -2.07
200     40    10    20     0   37.72   43.21   38.16   71.70  -12.31   -3.48
201     40    20    20     0   34.34   37.55   34.23   67.69   -6.33   -4.88
202     40    30    20     0   31.14   32.30   30.40   63.59   -0.03   -6.16
203     40    40    20     0   28.18   27.52   26.73   59.45    6.60   -7.27
204     40    55    20     0   24.04   20.96   21.30   52.91   17.69   -8.55
205     40    70    20     0   20.58   15.68   16.56   46.55   29.17   -9.25
206     40    85    20     0   17.95   11.88   12.92   41.03   39.66   -9.48
207     40   100    20     0   16.03    9.31   10.35   36.58   48.28   -9.48
208     55     0    20     0   31.40   40.17   40.07   69.59  -24.91   -9.65
209     55    10    20     0   28.79   35.38   36.34   66.04  -19.46  -10.72
210     55    20    20     0   26.21   30.78   32.66   62.32  -13.68  -11.83
211     55    30    20     0   23.80   26.52   29.10   58.53   -7.62  -12.82
212     55    40    20     0   21.54   22.60   25.67   54.66   -1.20  -13.71
213     55    55    20     0   18.38   17.23   20.65   48.55    9.50  -14.76
214     55    70    20     0   15.70   12.87   16.24   42.56   20.61  -15.39
215     55    85    20     0   13.66    9.72   12.86   37.33   30.76  -15.68
216     55   100    20     0   12.17    7.59   10.45   33.11   39.12  -15.78
217     70     0    20     0   23.27   32.45   38.02   63.71  -32.28  -17.05
218     70    10    20     0   21.34   28.60   34.53   60.43  -27.00  -17.84
219     70    20    20     0   19.45   24.92   31.11   57.00  -21.43  -18.63
220     70    30    20     0   17.66   21.50   27.80   53.49  -15.57  -19.36
221     70    40    20     0   15.99   18.34   24.62   49.91   -9.38  -20.02
222     70    55    20     0   13.65   14.00   19.98   44.23    0.95  -20.82
223     70    70    20     0   11.67   10.47   15.93   38.67   11.64  -21.33
224     70    85    20     0   10.14    7.91   12.79   33.79   21.42  -21.59
225     70   100    20     0    9.04    6.18   10.55   29.85   29.47  -21.71
226     85     0    20     0   17.17   26.38   36.17   58.40  -39.35  -23.68
227     85    10    20     0   15.75   23.27   32.91   55.35  -34.23  -24.21
228     85    20    20     0   14.36   20.30   29.71   52.18  -28.82  -24.75
229     85    30    20     0   13.05   17.53   26.62   48.92  -23.14  -25.24
230     85    40    20     0   11.82   14.98   23.67   45.61  -17.15  -25.70
231     85    55    20     0   10.10   11.46   19.37   40.35   -7.17  -26.24
232     85    70    20     0    8.64    8.59   15.62   35.19    3.13  -26.59
233     85    85    20     0    7.53    6.52   12.73   30.68   12.53  -26.78
234     85   100    20     0    6.72    5.11   10.64   27.03   20.27  -26.87
235    100     0    20     0   12.91   21.87   34.64   53.89  -45.45  -29.27
236    100    10    20     0   11.84   19.30   31.55   51.04  -40.46  -29.59
237    100    20    20     0   10.80   16.85   28.53   48.08  -35.18  -29.92
238    100    30    20     0    9.81   14.57   25.63   45.04  -29.65  -30.22
239    100    40    20     0    8.90   12.47   22.87   41.95  -23.83  -30.49
240    100    55    20     0    7.61    9.57   18.85   37.05  -14.17  -30.81
241    100    70    20     0    6.53    7.20   15.37   32.26   -4.22  -31.01
242    100    85    20     0    5.70    5.49   12.67   28.08    4.84  -31.11
243    100   100    20     0    5.10    4.32   10.72   24.70   12.29  -31.14
244      0     0    30     0   72.40   76.52   39.49   90.10   -2.88   26.47
245      0    10    30     0   66.13   67.00   35.72   85.50    3.43   23.70
246      0    20    30     0   60.07   58.00   31.94   80.74   10.06   21.02
247      0    30    30     0   54.44   49.78   28.28   75.93   16.99   18.53
248      0    40    30     0   49.30   42.38   24.70   71.13   24.24   16.44
249      0    55    30     0   42.32   32.51   19.41   63.76   36.19   14.04
250      0    70    30     0   36.64   24.72   14.74   56.80   48.38   12.88
251      0    85    30     0   32.44   19.17   11.17   50.89   59.43   12.61
252      0   100    30     0   29.40   15.41    8.70   46.19   68.46   12.74
253     10     0    30     0   63.28   68.68   38.41   86.34   -6.63   21.45
254     10    10    30     0   57.88   60.23   34.77   81.96   -0.48   18.95
255     10    20    30     0   52.59   52.17   31.12   77.38    6.01   16.50
256     10    30    30     0   47.69   44.82   27.59   72.78   12.78   14.23
257     10    40    30     0   43.19   38.17   24.14   68.14   19.89   12.29
258     10    55    30     0   37.05   29.24   19.06   60.99   31.63   10.02
259     10    70    30     0   32.01   22.15   14.56   54.19   43.66    8.83
260     10    85    30     0   28.24   17.09   11.12   48.37   54.59    8.45
261     10   100    30     0   25.53   13.66    8.72   43.75   63.53    8.43
262     20     0    30     0   54.79   61.27   37.29   82.52  -10.52   16.37
263     20    10    30     0   50.13   53.77   33.78   78.33   -4.52   14.11
264     20    20    30     0   45.61   46.65   30.28   73.97    1.80   11.92
265     20    30    30     0   41.37   40.09   26.88   69.54    8.43    9.85
266     20    40    30     0   37.48   34.16   23.57   65.09   15.39    8.07
267     20    55    30     0   32.12   26.13   18.69   58.16   26.92    5.94
268     20    70    30     0   27.69   19.73   14.37   51.53   38.78    4.73
269     20    85    30     0   24.36   15.15   11.07   45.84   49.56    4.23
270     20   100    30     0   21.95   12.04    8.75   41.28   58.40    4.09
271     30     0    30     0   46.93   54.33   36.17   78.65  -14.67   11.25
272     30    10    30     0   42.99   47.75   32.80   74.67   -8.83    9.25
273     30    20    30     0   39.12   41.45   29.42   70.49   -2.65    7.29
274     30    30    30     0   35.52   35.68   26.17   66.27    3.81    5.44
275     30    40    30     0   32.17   30.39   22.99   61.99   10.63    3.82
276     30    55    30     0   27.55   23.24   18.32   55.31   21.95    1.83
277     30    70    30     0   23.71   17.49   14.19   48.87   33.62    0.62
278     30    85    30     0   20.80   13.36   11.01   43.30   44.26    0.03
279     30   100    30     0   18.69   10.56    8.78   38.84   52.98   -0.23
280     40     0    30     0   39.73   47.88   35.02   74.75  -19.10    6.15
281     40    10    30     0   36.41   42.12   31.78   70.95  -13.40    4.38
282     40    20    30     0   33.17   36.62   28.56   66.99   -7.38    2.66
283     40    30    30     0   30.12   31.53   25.43   62.95   -1.05    1.01
284     40    40    30     0   27.30   26.89   22.40   58.87    5.61   -0.43
285     40    55    30     0   23.36   20.53   17.94   52.44   16.72   -2.28
286     40    70    30     0   20.06   15.42   13.99   46.20   28.19   -3.47
287     40    85    30     0   17.56   11.73   10.95   40.79   38.65   -4.13
288     40   100    30     0   15.74    9.24    8.81   36.44   47.25   -4.49
289     55     0    30     0   30.06   39.06   33.25   68.80  -26.47   -1.54
290     55    10    30     0   27.58   34.42   30.23   65.30  -20.98   -2.95
291     55    20    30     0   25.14   29.96   27.20   61.62  -15.16   -4.35
292     55    30    30     0   22.85   25.84   24.30   57.88   -9.05   -5.69
293     55    40    30     0   20.71   22.04   21.48   54.07   -2.60   -6.90
294     55    55    30     0   17.72   16.84   17.35   48.06    8.15   -8.49
295     55    70    30     0   15.19   12.61   13.69   42.18   19.28   -9.60
296     55    85    30     0   13.26    9.56   10.87   37.05   29.45  -10.30
297     55   100    30     0   11.86    7.50    8.86   32.92   37.82  -10.75
298     70     0    30     0   22.06   31.49   31.48   62.92  -34.36   -9.00
299     70    10    30     0   20.24   27.77   28.66   59.68  -29.04  -10.11
300     70    20    30     0   18.46   24.21   25.85   56.29  -23.42  -11.20
301     70    30    30     0   16.79   20.90   23.15   52.84  -17.51  -12.26
302     70    40    30     0   15.22   17.85   20.54   49.31  -11.28  -13.22
