data/profiles/FOGRA40L.ti3
CTI3

KEYWORD "DEVICE_CLASS"
DEVICE_CLASS "OUTPUT"
KEYWORD "COLOR_REP"
COLOR_REP "CMYK_LAB"

ORIGINATOR "Fogra, www.fogra.org"
DESCRIPTOR "FOGRA40L"
CREATED    "December 2006"
INSTRUMENTATION "D50, 2 degree, geometry 45/0, no polarisation filter, white backing, according to ISO 13655"
PRINT_CONDITIONS "Offset printing, based on ISO 12647-2:2004, OFCOM, paper type SC (super calandered), screen ruling corresponding to 60 cm-1, tone value increase curves B (CMY) and C (K)"
NUMBER_OF_FIELDS 11
BEGIN_DATA_FORMAT
SAMPLE_ID CMYK_C CMYK_M CMYK_Y CMYK_K XYZ_X XYZ_Y XYZ_Z LAB_L LAB_A LAB_B
END_DATA_FORMAT
NUMBER_OF_SETS 1617
BEGIN_DATA
1        0     0     0     0   71.81   74.48   56.85   89.15   -0.02    4.63
2        0    10     0     0   65.62   65.53   51.33   84.75    5.51    2.96
3        0    20     0     0   59.98   57.29   46.13   80.34   11.57    1.33
4        0    30     0     0   54.74   49.63   41.12   75.84   18.15   -0.23
5        0    40     0     0   49.84   42.59   36.35   71.28   25.09   -1.72
6        0    55     0     0   43.06   33.10   29.28   64.24   36.33   -3.27
7        0    70     0     0   37.61   25.70   23.17   57.75   47.43   -3.83
8        0    85     0     0   33.31   20.09   18.12   51.94   58.01   -3.53
9        0   100     0     0   30.43   16.49   14.68   47.61   66.22   -2.83
10      10     0     0     0   63.28   67.25   55.02   85.63   -3.54    0.48
11      10    10     0     0   58.41   59.74   50.16   81.70    1.95   -1.00
12      10    20     0     0   53.44   52.31   45.26   77.47    7.82   -2.58
13      10    30     0     0   48.79   45.38   40.44   73.14   14.22   -4.01
14      10    40     0     0   44.41   38.96   35.81   68.72   20.95   -5.36
15      10    55     0     0   38.30   30.22   28.92   61.84   32.02   -6.81
16      10    70     0     0   33.45   23.48   23.05   55.56   42.88   -7.38
17      10    85     0     0   29.54   18.28   18.20   49.83   53.31   -7.35
18      10   100     0     0   26.83   14.88   14.80   45.47   61.45   -6.82
19      20     0     0     0   55.42   60.48   53.32   82.10   -7.11   -3.80
20      20    10     0     0   51.29   53.88   48.79   78.39   -1.72   -5.14
21      20    20     0     0   47.24   47.53   44.35   74.53    3.96   -6.54
22      20    30     0     0   43.08   41.17   39.65   70.30   10.26   -7.88
23      20    40     0     0   39.23   35.42   35.23   66.08   16.74   -9.10
24      20    55     0     0   33.78   27.43   28.55   59.37   27.61  -10.47
25      20    70     0     0   29.40   21.25   22.89   53.22   38.19  -11.12
26      20    85     0     0   25.89   16.49   18.22   47.61   48.41  -11.24
27      20   100     0     0   23.48   13.37   14.91   43.31   56.57  -10.82
28      30     0     0     0   48.08   54.09   51.97   78.52  -10.89   -8.50
29      30    10     0     0   44.57   48.31   47.61   75.02   -5.73   -9.58
30      30    20     0     0   41.01   42.61   43.29   71.29   -0.22  -10.83
31      30    30     0     0   37.53   37.08   38.89   67.33    5.87  -11.98
32      30    40     0     0   34.14   31.87   34.55   63.23   12.21  -13.04
33      30    55     0     0   29.38   24.70   28.22   56.78   22.74  -14.39
34      30    70     0     0   25.51   19.08   22.78   50.78   33.15  -15.09
35      30    85     0     0   22.34   14.71   18.20   45.24   43.15  -15.28
36      30   100     0     0   20.16   11.85   15.03   40.98   51.15  -15.13
37      40     0     0     0   41.41   48.16   50.62   74.92  -14.68  -13.19
38      40    10     0     0   38.34   42.97   46.42   71.54   -9.64  -14.20
39      40    20     0     0   35.34   38.02   42.27   68.04   -4.39  -15.16
40      40    30     0     0   32.35   33.11   38.06   64.25    1.51  -16.18
41      40    40     0     0   29.45   28.51   33.95   60.35    7.66  -17.13
42      40    55     0     0   25.30   22.09   27.79   54.12   17.84  -18.26
43      40    70     0     0   21.88   17.01   22.56   48.27   27.98  -19.01
44      40    85     0     0   19.11   13.06   18.21   42.86   37.84  -19.40
45      40   100     0     0   17.20   10.50   15.14   38.72   45.62  -19.33
46      55     0     0     0   32.33   39.86   48.43   69.37  -20.61  -20.29
47      55    10     0     0   29.99   35.69   44.54   66.28  -15.90  -21.00
48      55    20     0     0   27.67   31.62   40.67   63.02  -10.81  -21.75
49      55    30     0     0   25.31   27.56   36.74   59.49   -5.25  -22.57
50      55    40     0     0   23.07   23.78   32.90   55.87    0.63  -23.30
51      55    55     0     0   19.79   18.46   27.15   50.04   10.25  -24.22
52      55    70     0     0   17.07   14.18   22.24   44.50   19.98  -24.90
53      55    85     0     0   14.86   10.90   18.18   39.41   29.27  -25.27
54      55   100     0     0   13.31    8.70   15.30   35.40   36.83  -25.44
55      70     0     0     0   24.97   32.83   46.34   64.02  -26.25  -27.05
56      70    10     0     0   23.21   29.48   42.72   61.21  -21.77  -27.50
57      70    20     0     0   21.38   26.11   39.11   58.14  -16.90  -28.13
58      70    30     0     0   19.60   22.84   35.41   54.90  -11.61  -28.61
59      70    40     0     0   17.86   19.75   31.78   51.55   -6.13  -29.07
60      70    55     0     0   15.33   15.38   26.48   46.14    2.99  -29.80
61      70    70     0     0   13.23   11.87   21.92   41.01   12.16  -30.29
62      70    85     0     0   11.48    9.12   18.13   36.22   20.88  -30.66
63      70   100     0     0   10.23    7.27   15.43   32.42   28.05  -30.90
64      85     0     0     0   19.25   27.13   44.38   59.09  -31.43  -33.20
65      85    10     0     0   17.97   24.45   41.05   56.54  -27.07  -33.42
66      85    20     0     0   16.60   21.74   37.67   53.75  -22.51  -33.74
67      85    30     0     0   15.21   19.03   34.18   50.72  -17.44  -34.07
68      85    40     0     0   13.85   16.46   30.81   47.57  -12.19  -34.43
69      85    55     0     0   11.90   12.89   25.84   42.60   -3.63  -34.79
70      85    70     0     0   10.28   10.01   21.59   37.86    4.94  -35.07
71      85    85     0     0    8.91    7.73   18.05   33.42   13.06  -35.32
72      85   100     0     0    7.95    6.20   15.53   29.90   19.78  -35.49
73     100     0     0     0   15.23   22.89   42.72   54.96  -35.58  -38.27
74     100    10     0     0   14.18   20.61   39.56   52.52  -31.43  -38.42
75     100    20     0     0   13.11   18.36   36.37   49.93  -27.08  -38.55
76     100    30     0     0   12.02   16.11   33.09   47.11  -22.26  -38.69
77     100    40     0     0   10.97   13.99   29.93   44.22  -17.26  -38.82
78     100    55     0     0    9.44   11.01   25.24   39.59   -9.15  -38.93
79     100    70     0     0    8.14    8.57   21.25   35.14   -1.08  -39.09
80     100    85     0     0    7.08    6.68   17.96   31.06    6.51  -39.18
81     100   100     0     0    6.31    5.39   15.61   27.83   12.60  -39.27
82       0     0    10     0   69.52   72.49   48.89   88.20   -0.80   11.67
83       0    10    10     0   64.18   64.32   44.68   84.13    4.95    9.61
84       0    20    10     0   58.78   56.35   40.34   79.81   10.98    7.62
85       0    30    10     0   53.71   48.83   36.09   75.35   17.67    5.66
86       0    40    10     0   48.88   41.90   31.94   70.80   24.53    3.88
87       0    55    10     0   42.30   32.60   25.85   63.83   35.81    1.80
88       0    70    10     0   37.11   25.45   20.58   57.51   46.85    0.83
89       0    85    10     0   33.00   20.01   16.23   51.85   57.30    0.65
90       0   100    10     0   30.14   16.42   13.15   47.51   65.57    1.05
91      10     0    10     0   61.69   65.89   47.75   84.94   -4.24    7.36
92      10    10    10     0   57.09   58.67   43.75   81.11    1.27    5.54
93      10    20    10     0   52.32   51.47   39.59   76.96    7.13    3.70
94      10    30    10     0   47.80   44.63   35.46   72.65   13.61    1.91
95      10    40    10     0   43.51   38.31   31.43   68.25   20.37    0.26
96      10    55    10     0   37.63   29.81   25.56   61.49   31.38   -1.72
97      10    70    10     0   32.93   23.20   20.48   55.28   42.26   -2.80
98      10    85    10     0   29.18   18.15   16.24   49.68   52.60   -3.12
99      10   100    10     0   26.60   14.83   13.29   45.40   60.85   -2.97
100     20     0    10     0   54.02   59.30   46.38   81.45   -7.87    2.95
101     20    10    10     0   50.07   52.90   42.63   77.82   -2.50    1.26
102     20    20    10     0   46.16   46.70   38.76   74.00    3.22   -0.32
103     20    30    10     0   42.17   40.53   34.82   69.85    9.51   -2.02
104     20    40    10     0   38.38   34.82   30.94   65.60   16.06   -3.54
105     20    55    10     0   33.16   27.07   25.27   59.04   26.86   -5.43
106     20    70    10     0   28.93   21.01   20.35   52.96   37.51   -6.53
107     20    85    10     0   25.53   16.33   16.24   47.41   47.77   -7.02
108     20   100    10     0   23.20   13.28   13.40   43.19   55.89   -7.08
109     30     0    10     0   46.76   53.01   45.20   77.88  -11.83   -1.80
110     30    10    10     0   43.38   47.38   41.57   74.43   -6.66   -3.24
111     30    20    10     0   39.96   41.81   37.85   70.74   -1.09   -4.70
112     30    30    10     0   36.59   36.39   34.11   66.82    5.00   -6.21
113     30    40    10     0   33.32   31.28   30.37   62.75   11.44   -7.58
114     30    55    10     0   28.75   24.32   24.93   56.41   21.94   -9.37
115     30    70    10     0   25.04   18.84   20.25   50.50   32.36  -10.56
116     30    85    10     0   22.04   14.58   16.28   45.06   42.51  -11.17
117     30   100    10     0   19.91   11.77   13.50   40.85   50.48  -11.37
118     40     0    10     0   40.15   47.15   44.00   74.28  -15.78   -6.54
119     40    10    10     0   37.23   42.12   40.51   70.95  -10.68   -7.88
120     40    20    10     0   34.38   37.30   36.97   67.50   -5.36   -9.09
121     40    30    10     0   31.44   32.46   33.34   63.72    0.51  -10.41
122     40    40    10     0   28.66   27.96   29.77   59.85    6.74  -11.61
123     40    55    10     0   24.71   21.73   24.56   53.74   17.01  -13.32
124     40    70    10     0   21.46   16.79   20.08   48.00   27.16  -14.54
125     40    85    10     0   18.83   12.96   16.29   42.70   37.08  -15.26
126     40   100    10     0   16.96   10.41   13.61   38.57   44.92  -15.60
127     55     0    10     0   31.16   38.93   42.15   68.70  -21.97  -13.86
128     55    10    10     0   28.96   34.90   38.87   65.67  -17.18  -14.83
129     55    20    10     0   26.73   30.92   35.57   62.44  -12.09  -15.85
130     55    30    10     0   24.47   26.99   32.22   58.96   -6.54  -16.96
131     55    40    10     0   22.30   23.28   28.90   55.36   -0.64  -17.96
132     55    55    10     0   19.23   18.13   24.04   49.66    9.13  -19.39
133     55    70    10     0   16.66   14.00   19.84   44.23   18.86  -20.54
134     55    85    10     0   14.55   10.76   16.29   39.18   28.35  -21.33
135     55   100    10     0   13.07    8.63   13.78   35.26   35.88  -21.76
136     70     0    10     0   23.89   32.03   40.33   63.37  -28.06  -20.71
137     70    10    10     0   22.25   28.81   37.30   60.61  -23.53  -21.42
138     70    20    10     0   20.53   25.52   34.17   57.58  -18.60  -22.23
139     70    30    10     0   18.82   22.33   31.09   54.38  -13.31  -23.12
140     70    40    10     0   17.18   19.31   27.97   51.05   -7.67  -23.86
141     70    55    10     0   14.81   15.09   23.45   45.76    1.56  -25.03
142     70    70    10     0   12.83   11.69   19.56   40.72   10.75  -26.00
143     70    85    10     0   11.18    9.00   16.28   35.99   19.74  -26.80
144     70   100    10     0    9.99    7.20   13.90   32.27   26.80  -27.24
145     85     0    10     0   18.35   26.51   38.65   58.52  -33.57  -26.86
146     85    10    10     0   17.08   23.84   35.80   55.93  -29.22  -27.42
147     85    20    10     0   15.79   21.19   32.91   53.16  -24.56  -28.00
148     85    30    10     0   14.49   18.58   30.02   50.19  -19.50  -28.66
149     85    40    10     0   13.21   16.08   27.12   47.08  -14.15  -29.29
150     85    55    10     0   11.41   12.62   22.92   42.19   -5.34  -30.19
151     85    70    10     0    9.89    9.82   19.32   37.53    3.35  -30.99
152     85    85    10     0    8.63    7.62   16.23   33.18   11.63  -31.53
153     85   100    10     0    7.71    6.13   14.04   29.73   18.33  -31.99
154    100     0    10     0   14.37   22.34   37.22   54.38  -38.27  -32.04
155    100    10    10     0   13.37   20.10   34.54   51.95  -34.09  -32.47
156    100    20    10     0   12.37   17.91   31.84   49.38  -29.63  -32.89
157    100    30    10     0   11.35   15.69   29.09   46.57  -24.63  -33.43
158    100    40    10     0   10.37   13.63   26.38   43.70  -19.54  -33.84
159    100    55    10     0    8.97   10.76   22.46   39.17  -11.27  -34.49
160    100    70    10     0    7.79    8.42   19.08   34.85   -3.02  -35.12
161    100    85    10     0    6.79    6.57   16.20   30.80    4.70  -35.56
162    100   100    10     0    6.08    5.33   14.14   27.65   10.87  -35.86
163      0     0    20     0   67.63   70.78   41.58   87.38   -1.35   19.07
164      0    10    20     0   62.56   62.96   38.11   83.42    4.31   16.80
165      0    20    20     0   57.58   55.41   34.68   79.28   10.39   14.45
166      0    30    20     0   52.66   48.03   31.11   74.84   17.14   12.14
167      0    40    20     0   47.97   41.24   27.64   70.34   24.01    9.95
168      0    55    20     0   41.58   32.13   22.48   63.45   35.27    7.32
169      0    70    20     0   36.53   25.14   18.00   57.21   46.22    5.82
170      0    85    20     0   32.56   19.83   14.27   51.64   56.65    5.18
171      0   100    20     0   29.90   16.36   11.69   47.45   64.98    5.11
172     10     0    20     0   59.94   64.32   40.63   84.13   -4.89   14.70
173     10    10    20     0   55.55   57.36   37.31   80.38    0.60   12.65
174     10    20    20     0   51.14   50.53   34.00   76.39    6.50   10.45
175     10    30    20     0   46.82   43.88   30.54   72.15   13.03    8.37
176     10    40    20     0   42.65   37.71   27.23   67.81   19.74    6.27
177     10    55    20     0   36.92   29.34   22.21   61.08   30.83    3.76
178     10    70    20     0   32.39   22.92   17.94   54.98   41.61    2.12
179     10    85    20     0   28.82   18.00   14.31   49.50   52.00    1.39
180     10   100    20     0   26.31   14.74   11.80   45.28   60.19    1.06
181     20     0    20     0   52.63   58.13   39.69   80.81   -8.64   10.20
182     20    10    20     0   48.83   51.89   36.52   77.22   -3.26    8.29
183     20    20    20     0   45.01   45.79   33.27   73.41    2.48    6.38
184     20    30    20     0   41.15   39.77   29.96   69.30    8.77    4.37
185     20    40    20     0   37.54   34.23   26.78   65.15   15.35    2.45
186     20    55    20     0   32.50   26.63   21.96   58.63   26.27    0.03
187     20    70    20     0   28.43   20.73   17.82   52.66   36.85   -1.63
188     20    85    20     0   25.17   16.17   14.31   47.20   47.14   -2.57
189     20   100    20     0   22.97   13.21   11.89   43.08   55.32   -3.00
190     30     0    20     0   45.44   51.88   38.69   77.21  -12.66    5.31
191     30    10    20     0   42.19   46.41   35.65   73.81   -7.51    3.64
192     30    20    20     0   38.89   40.97   32.54   70.16   -1.92    1.86
193     30    30    20     0   35.63   35.68   29.38   66.28    4.17    0.09
194     30    40    20     0   32.48   30.68   26.26   62.24   10.65   -1.68
195     30    55    20     0   28.09   23.89   21.64   55.98   21.20   -3.94
196     30    70    20     0   24.55   18.56   17.67   50.17   31.67   -5.58
197     30    85    20     0   21.66   14.42   14.32   44.83   41.77   -6.70
198     30   100    20     0   19.68   11.71   11.98   40.75   49.77   -7.27
199     40     0    20     0   38.88   46.06   37.68   73.59  -16.75    0.43
200     40    10    20     0   36.10   41.20   34.69   70.32  -11.70   -1.02
201     40    20    20     0   33.30   36.45   31.73   66.86   -6.36   -2.59
202     40    30    20     0   30.52   31.79   28.71   63.17   -0.47   -4.19
203     40    40    20     0   27.89   27.43   25.76   59.37    5.77   -5.73
204     40    55    20     0   24.06   21.32   21.34   53.30   16.10   -7.96
205     40    70    20     0   20.96   16.51   17.52   47.63   26.36   -9.62
206     40    85    20     0   18.49   12.81   14.34   42.48   36.27  -10.80
207     40   100    20     0   16.73   10.34   12.10   38.45   44.21  -11.60
208     55     0    20     0   30.03   38.02   36.07   68.03  -23.28   -6.92
209     55    10    20     0   27.92   34.08   33.34   65.02  -18.47   -8.17
210     55    20    20     0   25.81   30.25   30.61   61.87  -13.40   -9.48
211     55    30    20     0   23.63   26.39   27.78   58.41   -7.81  -10.86
212     55    40    20     0   21.55   22.76   24.98   54.82   -1.82  -12.19
213     55    55    20     0   18.65   17.77   20.90   49.22    8.06  -14.10
214     55    70    20     0   16.21   13.75   17.37   43.87   17.87  -15.76
215     55    85    20     0   14.24   10.63   14.37   38.96   27.38  -16.94
216     55   100    20     0   12.85    8.55   12.26   35.11   35.08  -17.83
217     70     0    20     0   22.87   31.24   34.52   62.71  -29.76  -13.89
218     70    10    20     0   21.28   28.06   32.00   59.94  -25.17  -14.92
219     70    20    20     0   19.67   24.91   29.45   56.99  -20.24  -16.04
220     70    30    20     0   18.08   21.84   26.85   53.85  -14.92  -17.14
221     70    40    20     0   16.51   18.89   24.26   50.55   -9.24  -18.25
222     70    55    20     0   14.27   14.76   20.48   45.31    0.22  -20.00
223     70    70    20     0   12.38   11.45   17.17   40.33    9.46  -21.40
224     70    85    20     0   10.85    8.86   14.41   35.72   18.50  -22.63
225     70   100    20     0    9.75    7.12   12.41   32.08   25.74  -23.48
226     85     0    20     0   17.40   25.81   33.10   57.85  -35.79  -20.18
227     85    10    20     0   16.21   23.21   30.75   55.29  -31.36  -21.02
228     85    20    20     0   15.00   20.65   28.37   52.56  -26.63  -21.91
229     85    30    20     0   13.78   18.10   25.95   49.62  -21.46  -22.87
230     85    40    20     0   12.60   15.72   23.59   46.61  -16.13  -23.82
231     85    55    20     0   10.89   12.34   20.09   41.76   -7.24  -25.32
232     85    70    20     0    9.48    9.63   17.02   37.17    1.64  -26.52
233     85    85    20     0    8.32    7.50   14.43   32.93   10.09  -27.50
234     85   100    20     0    7.48    6.07   12.54   29.58   16.77  -28.17
235    100     0    20     0   13.51   21.73   31.90   53.74  -40.94  -25.47
236    100    10    20     0   12.58   19.58   29.68   51.35  -36.69  -26.13
237    100    20    20     0   11.67   17.45   27.49   48.83  -32.12  -26.89
238    100    30    20     0   10.72   15.30   25.24   46.05  -27.01  -27.79
239    100    40    20     0    9.80   13.31   23.00   43.22  -21.92  -28.55
240    100    55    20     0    8.49   10.48   19.72   38.70  -13.34  -29.82
241    100    70    20     0    7.40    8.25   16.87   34.50   -5.16  -30.78
242    100    85    20     0    6.49    6.45   14.43   30.53    2.80  -31.62
243    100   100    20     0    5.85    5.25   12.68   27.45    9.15  -32.21
244      0     0    30     0   66.11   69.41   34.76   86.71   -1.82   27.14
245      0    10    30     0   61.21   61.79   31.99   82.80    3.85   24.49
246      0    20    30     0   56.42   54.43   29.15   78.71    9.97   21.90
247      0    30    30     0   51.59   47.21   26.31   74.32   16.58   19.08
248      0    40    30     0   47.04   40.55   23.44   69.86   23.52   16.55
249      0    55    30     0   40.87   31.67   19.20   63.07   34.78   13.30
250      0    70    30     0   36.00   24.86   15.53   56.93   45.66   11.11
251      0    85    30     0   32.21   19.69   12.41   51.48   56.06    9.97
252      0   100    30     0   29.58   16.26   10.19   47.32   64.29    9.55
253     10     0    30     0   58.46   63.01   33.98   83.45   -5.47   22.65
254     10    10    30     0   54.23   56.24   31.37   79.75    0.01   20.19
255     10    20    30     0   49.94   49.52   28.62   75.78    5.96   17.70
256     10    30    30     0   45.77   43.08   25.85   71.61   12.40   15.21
257     10    40    30     0   41.73   37.02   23.08   67.29   19.18   12.80
258     10    55    30     0   36.23   28.90   18.98   60.69   30.21    9.68
259     10    70    30     0   31.87   22.62   15.43   54.68   41.05    7.47
260     10    85    30     0   28.42   17.83   12.42   49.29   51.33    6.16
261     10   100    30     0   26.02   14.65   10.29   45.15   59.54    5.48
262     20     0    30     0   51.22   56.86   33.19   80.10   -9.30   18.04
263     20    10    30     0   47.56   50.82   30.67   76.57   -3.93   15.79
264     20    20    30     0   43.85   44.83   28.01   72.78    1.85   13.53
265     20    30    30     0   40.18   39.01   25.36   68.76    8.14   11.15
266     20    40    30     0   36.66   33.58   22.69   64.63   14.67    8.96
267     20    55    30     0   31.82   26.20   18.76   58.22   25.60    5.90
268     20    70    30     0   27.92   20.44   15.33   52.34   36.23    3.69
269     20    85    30     0   24.85   16.04   12.45   47.02   46.52    2.19
270     20   100    30     0   22.66   13.11   10.37   42.92   54.60    1.39
271     30     0    30     0   44.09   50.71   32.39   76.50  -13.51   13.03
272     30    10    30     0   41.01   45.42   29.98   73.17   -8.32   11.01
273     30    20    30     0   37.80   40.09   27.42   69.54   -2.73    8.92
274     30    30    30     0   34.67   34.94   24.85   65.70    3.39    6.80
275     30    40    30     0   31.67   30.11   22.30   61.75    9.85    4.74
276     30    55    30     0   27.46   23.50   18.54   55.58   20.43    1.82
277     30    70    30     0   24.06   18.30   15.27   49.86   30.90   -0.43
278     30    85    30     0   21.34   14.29   12.47   44.65   41.03   -1.96
279     30   100    30     0   19.44   11.63   10.48   40.62   49.14   -2.93
280     40     0    30     0   37.60   44.97   31.56   72.87  -17.78    8.03
281     40    10    30     0   34.95   40.28   29.22   69.67  -12.74    6.20
282     40    20    30     0   32.27   35.63   26.77   66.24   -7.32    4.35
283     40    30    30     0   29.64   31.12   24.34   62.61   -1.37    2.38
284     40    40    30     0   27.09   26.85   21.87   58.84    4.88    0.56
285     40    55    30     0   23.47   20.95   18.28   52.89   15.26   -2.25
286     40    70    30     0   20.53   16.28   15.16   47.34   25.54   -4.50
287     40    85    30     0   18.15   12.67   12.49   42.26   35.41   -6.15
288     40   100    30     0   16.50   10.27   10.61   38.32   43.47   -7.29
289     55     0    30     0   28.84   37.04   30.21   67.31  -24.69    0.54
290     55    10    30     0   26.85   33.25   28.06   64.36  -19.89   -1.06
291     55    20    30     0   24.81   29.47   25.81   61.20  -14.74   -2.67
292     55    30    30     0   22.78   25.76   23.56   57.81   -9.03   -4.44
293     55    40    30     0   20.83   22.27   21.28   54.31   -3.05   -6.10
294     55    55    30     0   18.07   17.41   17.91   48.78    6.90   -8.53
295     55    70    30     0   15.77   13.52   15.02   43.53   16.82  -10.71
296     55    85    30     0   13.91   10.49   12.55   38.71   26.40  -12.44
297     55   100    30     0   12.59    8.46   10.77   34.93   34.15  -13.66
298     70     0    30     0   21.78   30.38   28.94   61.98  -31.65   -6.60
299     70    10    30     0   20.31   27.34   26.99   59.28  -27.02   -8.01
300     70    20    30     0   18.77   24.26   24.88   56.34  -22.04   -9.40
301     70    30    30     0   17.27   21.27   22.82   53.24  -16.60  -10.94
302     70    40    30     0   15.80   18.42   20.69   50.00  -10.88  -12.35
303     70    55    30     0   13.72   14.45   17.60   44.87   -1.38  -14.55
