data/profiles/FOGRA27L.ti3
CTI3

KEYWORD "DEVICE_CLASS"
DEVICE_CLASS "OUTPUT"
KEYWORD "COLOR_REP"
COLOR_REP "CMYK_LAB"

ORIGINATOR       "FOGRA, www.fogra.org"
DESCRIPTOR       "FOGRA27"
CREATED          "September 2003"
INSTRUMENTATION  "GRETAGMACBETH SpectroChart and SpectroScan, D50, 2 degree, geometry 45/0, no polarisation filter, white backing"
PRINT_CONDITIONS "Offset printing, according to ISO/DIS 12647-2:2004, OFCOM,  paper type 1 or 2 = coated art, 115 g/m2, screen ruling 60 cm-1, positive-acting plates, see readme"
NUMBER_OF_FIELDS 11
BEGIN_DATA_FORMAT
SAMPLE_ID CMYK_C CMYK_M CMYK_Y CMYK_K XYZ_X XYZ_Y XYZ_Z LAB_L LAB_A LAB_B
END_DATA_FORMAT
NUMBER_OF_SETS 1485
BEGIN_DATA
1        0     0     0     0   86.98   89.93   78.05   95.97    0.50   -3.30
2        0    10     0     0   79.99   79.68   70.70   91.54    6.27   -4.57
3        0    20     0     0   73.09   69.78   63.43   86.89   12.42   -5.83
4        0    30     0     0   66.44   60.37   56.15   82.04   19.04   -6.90
5        0    40     0     0   60.10   51.55   48.94   77.01   26.20   -7.69
6        0    55     0     0   51.00   39.11   37.81   68.83   38.73   -7.94
7        0    70     0     0   43.21   28.85   27.82   60.65   52.23   -7.06
8        0    85     0     0   37.20   21.41   20.20   53.39   64.90   -5.49
9        0   100     0     0   32.64   16.19   14.79   47.23   75.94   -3.75
10      10     0     0     0   77.33   81.66   75.69   92.42   -2.79   -7.41
11      10    10     0     0   71.12   72.40   68.72   88.16    2.79   -8.60
12      10    20     0     0   64.97   63.41   61.74   83.66    8.78   -9.76
13      10    30     0     0   59.07   54.90   54.77   78.98   15.25  -10.71
14      10    40     0     0   53.39   46.84   47.82   74.09   22.28  -11.43
15      10    55     0     0   45.26   35.48   37.11   66.12   34.62  -11.67
16      10    70     0     0   38.25   26.07   27.48   58.10   47.98  -10.89
17      10    85     0     0   32.82   19.22   20.09   50.94   60.58   -9.48
18      10   100     0     0   28.70   14.44   14.81   44.85   71.57   -7.92
19      20     0     0     0   68.05   73.59   73.33   88.73   -6.25  -11.74
20      20    10     0     0   62.57   65.26   66.67   84.62   -0.82  -12.81
21      20    20     0     0   57.18   57.21   60.01   80.30    4.99  -13.85
22      20    30     0     0   51.96   49.52   53.32   75.77   11.32  -14.69
23      20    40     0     0   46.97   42.27   46.67   71.05   18.19  -15.32
24      20    55     0     0   39.74   31.94   36.38   63.29   30.33  -15.53
25      20    70     0     0   33.50   23.36   27.11   55.44   43.55  -14.84
26      20    85     0     0   28.66   17.12   19.97   48.41   56.03  -13.59
27      20   100     0     0   24.97   12.77   14.85   42.41   66.95  -12.22
28      30     0     0     0   59.12   65.73   70.93   84.86   -9.94  -16.30
29      30    10     0     0   54.40   58.36   64.59   80.94   -4.68  -17.20
30      30    20     0     0   49.70   51.17   58.23   76.78    0.98  -18.11
31      30    30     0     0   45.18   44.33   51.85   72.45    7.13  -18.83
32      30    40     0     0   40.81   37.81   45.48   67.88   13.86  -19.37
33      30    55     0     0   34.49   28.54   35.65   60.37   25.76  -19.54
34      30    70     0     0   29.00   20.80   26.76   52.73   38.77  -18.93
35      30    85     0     0   24.73   15.15   19.88   45.84   51.10  -17.83
36      30   100     0     0   21.48   11.22   14.92   39.96   61.90  -16.63
37      40     0     0     0   50.70   58.17   68.49   80.84  -13.82  -21.02
38      40    10     0     0   46.64   51.66   62.43   77.08   -8.70  -21.78
39      40    20     0     0   42.64   45.35   56.39   73.12   -3.21  -22.53
40      40    30     0     0   38.75   39.29   50.31   68.96    2.78  -23.13
41      40    40     0     0   35.01   33.54   44.26   64.59    9.32  -23.57
42      40    55     0     0   29.55   25.28   34.89   57.34   20.97  -23.67
43      40    70     0     0   24.79   18.36   26.39   49.93   33.73  -23.12
44      40    85     0     0   21.07   13.32   19.80   43.24   45.85  -22.16
45      40   100     0     0   18.25    9.81   15.02   37.50   56.47  -21.11
46      55     0     0     0   38.71   47.15   64.57   74.29  -20.30  -28.65
47      55    10     0     0   35.65   41.95   59.02   70.83  -15.43  -29.16
48      55    20     0     0   32.60   36.87   53.46   67.18  -10.19  -29.67
49      55    30     0     0   29.64   31.98   47.88   63.33   -4.48  -30.06
50      55    40     0     0   26.78   27.32   42.32   59.27    1.78  -30.33
51      55    55     0     0   22.59   20.60   33.72   52.51   12.91  -30.31
52      55    70     0     0   18.90   14.93   25.88   45.54   25.15  -29.79
53      55    85     0     0   16.01   10.79   19.75   39.22   36.77  -28.98
54      55   100     0     0   13.81    7.91   15.26   33.79   46.98  -28.12
55      70     0     0     0   28.50   37.38   60.66   67.56  -27.12  -36.45
56      70    10     0     0   26.28   33.33   55.60   64.42  -22.48  -36.70
57      70    20     0     0   24.05   29.33   50.52   61.07  -17.48  -36.96
58      70    30     0     0   21.89   25.51   45.45   57.57  -12.06  -37.12
59      70    40     0     0   19.78   21.81   40.37   53.83   -6.10  -37.21
60      70    55     0     0   16.69   16.49   32.55   47.61    4.44  -37.01
61      70    70     0     0   13.95   11.99   25.42   41.20   15.97  -36.47
62      70    85     0     0   11.79    8.67   19.78   35.33   26.94  -35.74
63      70   100     0     0   10.15    6.36   15.61   30.30   36.56  -34.99
64      85     0     0     0   20.57   29.41   57.04   61.14  -33.77  -43.86
65      85    10     0     0   18.98   26.26   52.42   58.28  -29.32  -43.88
66      85    20     0     0   17.40   23.17   47.79   55.24  -24.55  -43.90
67      85    30     0     0   15.86   20.19   43.16   52.05  -19.38  -43.84
68      85    40     0     0   14.35   17.32   38.55   48.66  -13.74  -43.73
69      85    55     0     0   12.12   13.15   31.46   42.99   -3.82  -43.34
70      85    70     0     0   10.14    9.61   25.00   37.14    6.97  -42.72
71      85    85     0     0    8.58    7.00   19.86   31.80   17.17  -42.01
72      85   100     0     0    7.38    5.16   16.01   27.19   26.12  -41.33
73     100     0     0     0   14.65   23.09   53.79   55.16  -39.94  -50.74
74     100    10     0     0   13.53   20.65   49.55   52.56  -35.67  -50.55
75     100    20     0     0   12.43   18.26   45.32   49.81  -31.11  -50.33
76     100    30     0     0   11.34   15.95   41.09   46.91  -26.18  -50.07
77     100    40     0     0   10.28   13.73   36.91   43.85  -20.85  -49.78
78     100    55     0     0    8.70   10.49   30.48   38.71  -11.53  -49.18
79     100    70     0     0    7.30    7.73   24.62   33.41   -1.48  -48.47
80     100    85     0     0    6.18    5.68   19.96   28.58    7.93  -47.75
81     100   100     0     0    5.33    4.23   16.43   24.43   16.18  -47.10
82       0     0    10     0   84.95   88.39   67.93   95.32   -0.51    4.48
83       0    10    10     0   78.14   78.30   61.71   90.92    5.31    2.79
84       0    20    10     0   71.45   68.59   55.42   86.30   11.51    1.21
85       0    30    10     0   65.01   59.37   49.17   81.50   18.20   -0.22
86       0    40    10     0   58.87   50.73   42.90   76.52   25.39   -1.32
87       0    55    10     0   50.11   38.60   33.25   68.46   37.95   -2.13
88       0    70    10     0   42.63   28.61   24.56   60.44   51.42   -1.77
89       0    85    10     0   36.86   21.35   17.88   53.33   64.04   -0.61
90       0   100    10     0   32.47   16.25   13.13   47.30   75.01    0.76
91      10     0    10     0   75.34   80.14   65.89   91.75   -3.92    0.21
92      10    10    10     0   69.34   71.08   59.93   87.53    1.74   -1.31
93      10    20    10     0   63.39   62.26   53.88   83.05    7.80   -2.75
94      10    30    10     0   57.69   53.94   47.89   78.43   14.32   -4.05
95      10    40    10     0   52.21   46.06   41.85   73.58   21.40   -5.06
96      10    55    10     0   44.39   34.98   32.59   65.73   33.78   -5.84
97      10    70    10     0   37.67   25.82   24.22   57.86   47.13   -5.57
98      10    85    10     0   32.46   19.14   17.75   50.85   59.68   -4.58
99      10   100    10     0   28.51   14.47   13.13   44.90   70.62   -3.39
100     20     0    10     0   66.14   72.14   63.78   88.04   -7.47   -4.19
101     20    10    10     0   60.87   64.00   58.07   83.97   -1.96   -5.56
102     20    20    10     0   55.67   56.12   52.31   79.68    3.92   -6.86
103     20    30    10     0   50.65   48.60   46.56   75.20   10.31   -8.04
104     20    40    10     0   45.84   41.52   40.79   70.54   17.23   -8.95
105     20    55    10     0   38.91   31.46   31.90   62.90   29.42   -9.68
106     20    70    10     0   32.93   23.12   23.85   55.19   42.63   -9.50
107     20    85    10     0   28.29   17.03   17.61   48.30   55.09   -8.68
108     20   100    10     0   24.76   12.78   13.14   42.43   65.97   -7.68
109     30     0    10     0   57.30   64.35   61.63   84.15  -11.32   -8.81
110     30    10    10     0   52.77   57.16   56.20   80.27   -5.97  -10.00
111     30    20    10     0   48.25   50.13   50.69   76.15   -0.24  -11.15
112     30    30    10     0   43.92   43.46   45.22   71.87    5.97  -12.18
113     30    40    10     0   39.72   37.10   39.68   67.35   12.75  -13.00
114     30    55    10     0   33.68   28.08   31.20   59.96   24.72  -13.67
115     30    70    10     0   28.44   20.55   23.50   52.46   37.74  -13.57
116     30    85    10     0   24.35   15.05   17.50   45.70   50.07  -12.89
117     30   100    10     0   21.24   11.22   13.17   39.94   60.85  -12.06
118     40     0    10     0   48.97   56.89   59.43   80.12  -15.37  -13.58
119     40    10    10     0   45.10   50.55   54.26   76.40  -10.17  -14.62
120     40    20    10     0   41.26   44.38   49.02   72.48   -4.62  -15.59
121     40    30    10     0   37.55   38.48   43.81   68.37    1.45  -16.49
122     40    40    10     0   33.97   32.87   38.56   64.06    8.04  -17.19
123     40    55    10     0   28.76   24.84   30.48   56.92   19.76  -17.79
124     40    70    10     0   24.23   18.12   23.14   49.64   32.56  -17.74
125     40    85    10     0   20.68   13.21   17.40   43.07   44.68  -17.20
126     40   100    10     0   17.99    9.78   13.24   37.45   55.31  -16.53
127     55     0    10     0   37.11   46.02   55.92   73.56  -22.31  -21.29
128     55    10    10     0   34.21   40.96   51.18   70.15  -17.36  -22.05
129     55    20    10     0   31.32   36.02   46.38   66.53  -12.06  -22.77
130     55    30    10     0   28.52   31.28   41.60   62.74   -6.27  -23.44
131     55    40    10     0   25.79   26.73   36.79   58.73    0.05  -23.96
132     55    55    10     0   21.83   20.21   29.39   52.08   11.28  -24.41
133     55    70    10     0   18.33   14.71   22.63   45.23   23.59  -24.38
134     55    85    10     0   15.59   10.67   17.31   39.01   35.26  -23.99
135     55   100    10     0   13.50    7.86   13.41   33.68   45.50  -23.49
136     70     0    10     0   27.04   36.41   52.42   66.84  -29.75  -29.13
137     70    10    10     0   24.96   32.49   48.12   63.74  -25.04  -29.63
138     70    20    10     0   22.86   28.60   43.74   60.43  -19.98  -30.10
139     70    30    10     0   20.84   24.90   39.41   56.98  -14.47  -30.53
140     70    40    10     0   18.85   21.31   35.02   53.29   -8.45  -30.86
141     70    55    10     0   15.95   16.15   28.31   47.17    2.22  -31.11
142     70    70    10     0   13.39   11.77   22.16   40.85   13.87  -31.04
143     70    85    10     0   11.36    8.54   17.28   35.08   24.94  -30.71
144     70   100    10     0    9.82    6.29   13.67   30.13   34.65  -30.33
145     85     0    10     0   19.28   28.60   49.19   60.42  -37.05  -36.57
146     85    10    10     0   17.81   25.55   45.27   57.61  -32.53  -36.83
147     85    20    10     0   16.33   22.55   41.29   54.61  -27.70  -37.06
148     85    30    10     0   14.90   19.67   37.35   51.46  -22.45  -37.26
149     85    40    10     0   13.50   16.89   33.38   48.12  -16.74  -37.39
150     85    55    10     0   11.43   12.85   27.31   42.53   -6.66  -37.44
151     85    70    10     0    9.60    9.41   21.75   36.77    4.30  -37.28
152     85    85    10     0    8.15    6.87   17.31   31.50   14.65  -36.95
153     85   100    10     0    7.03    5.08   13.98   26.96   23.73  -36.61
154    100     0    10     0   13.53   22.41   46.28   54.46  -43.88  -43.47
155    100    10    10     0   12.51   20.06   42.70   51.90  -39.54  -43.52
156    100    20    10     0   11.49   17.75   39.08   49.19  -34.93  -43.51
157    100    30    10     0   10.50   15.52   35.50   46.34  -29.92  -43.52
158    100    40    10     0    9.53   13.37   31.91   43.31  -24.51  -43.46
159    100    55    10     0    8.08   10.23   26.42   38.25  -15.01  -43.30
160    100    70    10     0    6.80    7.55   21.39   33.02   -4.75  -43.02
161    100    85    10     0    5.77    5.55   17.36   28.25    4.87  -42.66
162    100   100    10     0    4.99    4.15   14.31   24.15   13.30  -42.33
163      0     0    20     0   82.90   86.80   58.33   94.66   -1.51   12.61
164      0    10    20     0   76.29   76.90   53.04   90.28    4.37   10.61
165      0    20    20     0   69.80   67.37   47.76   85.69   10.63    8.64
166      0    30    20     0   63.56   58.34   42.43   80.93   17.37    6.88
167      0    40    20     0   57.64   49.90   37.12   76.01   24.60    5.38
168      0    55    20     0   49.19   38.06   28.86   68.07   37.18    4.01
169      0    70    20     0   42.01   28.34   21.39   60.20   50.63    3.83
170      0    85    20     0   36.50   21.28   15.65   53.25   63.19    4.49
171      0   100    20     0   32.31   16.31   11.54   47.38   74.10    5.44
172     10     0    20     0   73.38   78.62   56.52   91.06   -4.98    8.27
173     10    10    20     0   67.57   69.74   51.46   86.87    0.73    6.46
174     10    20    20     0   61.82   61.10   46.38   82.43    6.85    4.64
175     10    30    20     0   56.31   52.95   41.27   77.85   13.43    3.03
176     10    40    20     0   51.04   45.27   36.16   73.07   20.55    1.63
177     10    55    20     0   43.51   34.46   28.24   65.33   32.96    0.32
178     10    70    20     0   37.07   25.55   21.06   57.61   46.30    0.04
179     10    85    20     0   32.10   19.06   15.51   50.76   58.80    0.53
180     10   100    20     0   28.32   14.50   11.52   44.94   69.68    1.30
181     20     0    20     0   64.25   70.68   54.69   87.33   -8.66    3.76
182     20    10    20     0   59.17   62.71   49.83   83.29   -3.08    2.12
183     20    20    20     0   54.16   55.01   44.97   79.05    2.87    0.49
184     20    30    20     0   49.32   47.66   40.07   74.61    9.32   -0.98
185     20    40    20     0   44.71   40.76   35.18   70.01   16.29   -2.26
186     20    55    20     0   38.06   30.96   27.59   62.48   28.52   -3.52
187     20    70    20     0   32.34   22.85   20.69   54.92   41.73   -3.87
188     20    85    20     0   27.92   16.94   15.36   48.18   54.16   -3.55
189     20   100    20     0   24.55   12.79   11.51   42.45   64.99   -2.97
190     30     0    20     0   55.51   62.97   52.80   83.43  -12.62   -0.93
191     30    10    20     0   51.15   55.94   48.17   79.58   -7.22   -2.37
192     30    20    20     0   46.82   49.09   43.52   75.51   -1.41   -3.84
193     30    30    20     0   42.66   42.58   38.85   71.27    4.86   -5.15
194     30    40    20     0   38.65   36.39   34.18   66.81   11.69   -6.32
195     30    55    20     0   32.87   27.61   26.94   59.53   23.71   -7.50
196     30    70    20     0   27.86   20.29   20.36   52.17   36.75   -7.92
197     30    85    20     0   23.97   14.95   15.23   45.56   49.06   -7.76
198     30   100    20     0   21.01   11.21   11.52   39.93   59.80   -7.35
199     40     0    20     0   47.26   55.59   50.86   79.38  -16.89   -5.78
200     40    10    20     0   43.55   49.40   46.45   75.70  -11.63   -7.05
201     40    20    20     0   39.90   43.41   42.04   71.83   -6.00   -8.33
202     40    30    20     0   36.34   37.65   37.59   67.76    0.13   -9.49
203     40    40    20     0   32.93   32.20   33.16   63.51    6.79  -10.52
204     40    55    20     0   27.97   24.40   26.28   56.48   18.57  -11.62
205     40    70    20     0   23.66   17.87   20.01   49.33   31.40  -12.08
206     40    85    20     0   20.29   13.09   15.12   42.90   43.53  -12.05
207     40   100    20     0   17.73    9.75   11.55   37.40   54.15  -11.80
208     55     0    20     0   35.55   44.88   47.77   72.81  -24.27  -13.58
209     55    10    20     0   32.80   39.96   43.74   69.44  -19.25  -14.57
210     55    20    20     0   30.06   35.16   39.70   65.87  -13.87  -15.57
211     55    30    20     0   27.40   30.55   35.62   62.12   -8.02  -16.48
212     55    40    20     0   24.83   26.14   31.57   58.17   -1.63  -17.32
213     55    55    20     0   21.07   19.81   25.28   51.62    9.69  -18.24
214     55    70    20     0   17.77   14.46   19.52   44.89   22.06  -18.71
215     55    85    20     0   15.18   10.54   14.99   38.80   33.78  -18.80
216     55   100    20     0   13.21    7.81   11.67   33.57   44.06  -18.73
217     70     0    20     0   25.65   35.44   44.69   66.09  -32.27  -21.50
218     70    10    20     0   23.69   31.63   41.04   63.03  -27.51  -22.21
219     70    20    20     0   21.72   27.87   37.36   59.77  -22.36  -22.95
220     70    30    20     0   19.82   24.27   33.68   56.36  -16.80  -23.61
221     70    40    20     0   17.96   20.80   29.99   52.73  -10.70  -24.24
222     70    55    20     0   15.24   15.79   24.29   46.70    0.08  -24.96
223     70    70    20     0   12.84   11.55   19.07   40.49   11.84  -25.36
224     70    85    20     0   10.94    8.41   14.93   34.82   23.01  -25.50
225     70   100    20     0    9.49    6.22   11.85   29.96   32.80  -25.52
226     85     0    20     0   18.04   27.78   41.84   59.69  -40.26  -29.00
227     85    10    20     0   16.67   24.83   38.52   56.91  -35.69  -29.46
228     85    20    20     0   15.31   21.94   35.20   53.96  -30.80  -29.96
229     85    30    20     0   13.98   19.14   31.87   50.86  -25.48  -30.39
230     85    40    20     0   12.68   16.45   28.54   47.56  -19.69  -30.82
231     85    55    20     0   10.77   12.54   23.40   42.06   -9.47  -31.31
232     85    70    20     0    9.07    9.21   18.68   36.38    1.64  -31.60
233     85    85    20     0    7.73    6.74   14.92   31.20   12.15  -31.72
234     85   100    20     0    6.70    5.00   12.08   26.73   21.38  -31.75
235    100     0    20     0   12.46   21.72   39.27   53.73  -47.81  -35.94
236    100    10    20     0   11.52   19.45   36.27   51.22  -43.42  -36.20
237    100    20    20     0   10.60   17.24   33.26   48.56  -38.74  -36.45
238    100    30    20     0    9.69   15.08   30.24   45.74  -33.67  -36.69
239    100    40    20     0    8.80   13.00   27.24   42.77  -28.18  -36.91
240    100    55    20     0    7.48    9.96   22.60   37.78  -18.51  -37.18
241    100    70    20     0    6.31    7.36   18.34   32.61   -8.04  -37.34
242    100    85    20     0    5.38    5.42   14.92   27.91    1.79  -37.40
243    100   100    20     0    4.67    4.06   12.33   23.86   10.42  -37.42
244      0     0    30     0   80.90   85.21   49.16   93.98   -2.44   21.31
245      0    10    30     0   74.50   75.51   44.82   89.63    3.50   18.92
246      0    20    30     0   68.20   66.16   40.41   85.08    9.81   16.61
247      0    30    30     0   62.17   57.33   36.01   80.36   16.60   14.43
248      0    40    30     0   56.44   49.07   31.55   75.50   23.87   12.58
249      0    55    30     0   48.31   37.53   24.66   67.68   36.46   10.55
250      0    70    30     0   41.43   28.08   18.39   59.96   49.87    9.71
251      0    85    30     0   36.14   21.20   13.52   53.17   62.35    9.82
252      0   100    30     0   32.13   16.36   10.03   47.44   73.19   10.31
253     10     0    30     0   71.45   77.09   47.62   90.36   -5.99   16.85
254     10    10    30     0   65.85   68.39   43.46   86.20   -0.21   14.68
255     10    20    30     0   60.28   59.94   39.21   81.80    5.96   12.55
256     10    30    30     0   54.98   51.98   34.99   77.27   12.60   10.54
257     10    40    30     0   49.88   44.47   30.69   72.54   19.76    8.80
258     10    55    30     0   42.66   33.95   24.09   64.93   32.18    6.84
259     10    70    30     0   36.50   25.29   18.07   57.36   45.49    5.92
260     10    85    30     0   31.74   18.97   13.37   50.65   57.94    5.87
261     10   100    30     0   28.12   14.53   10.00   44.98   68.76    6.17
262     20     0    30     0   62.43   69.23   46.04   86.62   -9.75   12.25
263     20    10    30     0   57.54   61.43   42.04   82.61   -4.10   10.27
264     20    20    30     0   52.71   53.90   37.98   78.40    1.91    8.34
265     20    30    30     0   48.06   46.74   33.92   74.02    8.40    6.48
266     20    40    30     0   43.62   40.00   29.82   69.47   15.42    4.88
267     20    55    30     0   37.25   30.48   23.50   62.06   27.68    3.00
268     20    70    30     0   31.79   22.60   17.73   54.65   40.87    2.01
269     20    85    30     0   27.56   16.84   13.23   48.06   53.25    1.79
270     20   100    30     0   24.34   12.80    9.97   42.46   64.04    1.89
271     30     0    30     0   53.77   61.59   44.42   82.70  -13.87    7.45
272     30    10    30     0   49.60   54.74   40.61   78.89   -8.40    5.68
273     30    20    30     0   45.43   48.04   36.72   74.85   -2.53    3.93
274     30    30    30     0   41.45   41.71   32.86   70.67    3.80    2.27
275     30    40    30     0   37.60   35.67   28.94   66.27   10.68    0.79
276     30    55    30     0   32.08   27.14   22.91   59.11   22.74   -1.00
277     30    70    30     0   27.31   20.04   17.41   51.88   35.77   -2.05
278     30    85    30     0   23.60   14.84   13.09   45.41   48.05   -2.41
279     30   100    30     0   20.77   11.19    9.96   39.90   58.77   -2.47
280     40     0    30     0   45.62   54.31   42.76   78.64  -18.31    2.51
281     40    10    30     0   42.08   48.28   39.12   75.00  -12.98    0.93
282     40    20    30     0   38.58   42.43   35.43   71.17   -7.29   -0.61
283     40    30    30     0   35.20   36.84   31.76   67.16   -1.10   -2.12
284     40    40    30     0   31.94   31.54   28.04   62.96    5.61   -3.45
285     40    55    30     0   27.21   23.96   22.31   56.04   17.44   -5.13
286     40    70    30     0   23.12   17.62   17.09   49.03   30.29   -6.21
287     40    85    30     0   19.91   12.98   12.97   42.73   42.40   -6.69
288     40   100    30     0   17.47    9.72    9.97   37.34   53.01   -6.91
289     55     0    30     0   34.06   43.75   40.11   72.06  -26.13   -5.44
290     55    10    30     0   31.45   38.97   36.79   68.73  -21.05   -6.71
291     55    20    30     0   28.85   34.31   33.41   65.21  -15.61   -7.96
292     55    30    30     0   26.34   29.83   30.05   61.51   -9.69   -9.20
293     55    40    30     0   23.89   25.55   26.65   57.61   -3.25  -10.31
294     55    55    30     0   20.35   19.42   21.43   51.17    8.14  -11.79
295     55    70    30     0   17.23   14.23   16.63   44.56   20.57  -12.85
296     55    85    30     0   14.78   10.42   12.83   38.59   32.32  -13.45
297     55   100    30     0   12.91    7.75   10.04   33.46   42.62  -13.82
298     70     0    30     0   24.30   34.47   37.46   65.34  -34.77  -13.49
299     70    10    30     0   22.47   30.79   34.47   62.33  -29.93  -14.47
300     70    20    30     0   20.62   27.14   31.40   59.11  -24.73  -15.45
301     70    30    30     0   18.85   23.66   28.37   55.75  -19.10  -16.42
302     70    40    30     0   17.09   20.29   25.28   52.17  -12.94  -17.32
303     70    55    30     0   14.55   15.45   20.56   46.24   -2.05  -18.56
