data/profiles/IFRA30S.ti3
CTI3

KEYWORD "DEVICE_CLASS"
DEVICE_CLASS "OUTPUT"
KEYWORD "COLOR_REP"
COLOR_REP "CMYK_LAB"

ORIGINATOR	"Ifra, www.ifra.com"
DESCRIPTOR	"Ifra30S"
CREATED	"30.06.2004"
INSTRUMENTATION	"GRETAGMACBETH SpectroScan, D50, 2 degree, geometry 45/0, no polarisation filter, white backing"
PRINT_CONDITIONS	"Newspaper Coldset-Offset printing according to ISO/DIS 12647-3:2004, standard newsprint, screen ruling 40 l/cm ± 2 l/cm"
NUMBER_OF_FIELDS	11
BEGIN_DATA_FORMAT
SAMPLE_ID CMYK_C CMYK_M CMYK_Y CMYK_K XYZ_X XYZ_Y XYZ_Z LAB_L LAB_A LAB_B
NUMBER_OF_SETS	928
BEGIN_DATA
1 	100.00 	0.00 	0.00 	0.00 	20.78 	27.14 	39.64 	59.10 	-23.95 	-27.15
2 	0.00 	100.00 	0.00 	0.00 	34.74 	23.42 	19.03 	55.50 	47.59 	0.63
3 	0.00 	0.00 	100.00 	0.00 	54.73 	57.34 	11.81 	80.37 	-1.40 	61.54
4 	100.00 	100.00 	0.00 	0.00 	13.41 	12.81 	19.48 	42.48 	7.00 	-22.79
5 	100.00 	0.00 	100.00 	0.00 	15.35 	22.76 	11.85 	54.82 	-34.29 	17.38
6 	0.00 	100.00 	100.00 	0.00 	31.89 	21.81 	8.66 	53.82 	44.81 	26.05
7 	100.00 	100.00 	100.00 	0.00 	11.13 	11.53 	9.38 	40.46 	0.09 	0.46
8 	70.00 	70.00 	0.00 	0.00 	16.76 	15.73 	21.87 	46.62 	9.14 	-20.50
9 	70.00 	0.00 	70.00 	0.00 	19.88 	27.27 	14.48 	59.22 	-28.86 	17.73
10 	0.00 	70.00 	70.00 	0.00 	34.33 	25.15 	10.41 	57.22 	38.77 	25.94
11 	40.00 	40.00 	0.00 	0.00 	25.20 	23.92 	27.97 	56.01 	9.30 	-15.29
12 	0.00 	40.00 	40.00 	0.00 	40.58 	33.64 	15.93 	64.68 	26.96 	23.51
13 	40.00 	40.00 	40.00 	0.00 	22.43 	22.16 	15.81 	54.20 	4.94 	5.73
14 	40.00 	0.00 	40.00 	0.00 	29.88 	36.63 	21.33 	67.00 	-19.40 	15.70
15 	20.00 	20.00 	0.00 	0.00 	38.26 	37.50 	36.17 	67.65 	6.85 	-7.70
16 	20.00 	0.00 	20.00 	0.00 	43.07 	48.27 	31.57 	74.99 	-10.01 	11.70
17 	0.00 	20.00 	20.00 	0.00 	49.24 	45.42 	26.22 	73.17 	15.31 	17.26
18 	100.00 	0.00 	0.00 	100.00 	7.24 	8.09 	7.72 	34.17 	-5.31 	-4.29
19 	0.00 	100.00 	0.00 	100.00 	9.11 	7.97 	5.89 	33.92 	12.55 	3.11
20 	0.00 	0.00 	100.00 	100.00 	10.69 	11.09 	5.57 	39.73 	-0.02 	14.66
21 	100.00 	100.00 	0.00 	100.00 	7.00 	6.97 	6.94 	31.74 	2.81 	-5.32
22 	100.00 	0.00 	100.00 	100.00 	7.69 	9.17 	6.21 	36.31 	-10.25 	5.75
23 	0.00 	100.00 	100.00 	100.00 	10.14 	8.80 	5.26 	35.60 	13.61 	9.07
24 	100.00 	100.00 	100.00 	100.00 	6.82 	7.05 	5.69 	31.92 	0.23 	0.61
25 	0.00 	0.00 	0.00 	100.00 	9.24 	9.40 	6.68 	36.74 	1.46 	4.42
26 	0.00 	0.00 	0.00 	0.00 	64.42 	66.40 	50.09 	85.20 	0.90 	5.14
27 	90.00 	0.00 	0.00 	0.00 	22.01 	28.39 	40.16 	60.24 	-23.04 	-25.87
28 	80.00 	0.00 	0.00 	0.00 	23.50 	29.88 	40.76 	61.55 	-21.95 	-24.39
29 	70.00 	0.00 	0.00 	0.00 	25.41 	31.77 	41.48 	63.15 	-20.61 	-22.55
30 	60.00 	0.00 	0.00 	0.00 	27.84 	34.14 	42.33 	65.07 	-18.98 	-20.32
31 	50.00 	0.00 	0.00 	0.00 	30.99 	37.12 	43.31 	67.37 	-16.85 	-17.59
32 	40.00 	0.00 	0.00 	0.00 	34.90 	40.76 	44.42 	70.01 	-14.39 	-14.40
33 	30.00 	0.00 	0.00 	0.00 	40.02 	45.40 	45.73 	73.15 	-11.32 	-10.56
34 	25.00 	0.00 	0.00 	0.00 	43.09 	48.13 	46.42 	74.91 	-9.57 	-8.36
35 	20.00 	0.00 	0.00 	0.00 	46.48 	51.12 	47.12 	76.75 	-7.75 	-6.01
36 	15.00 	0.00 	0.00 	0.00 	50.38 	54.51 	47.88 	78.76 	-5.73 	-3.44
37 	10.00 	0.00 	0.00 	0.00 	54.63 	58.16 	48.64 	80.83 	-3.63 	-0.75
38 	7.00 	0.00 	0.00 	0.00 	57.40 	60.51 	49.08 	82.11 	-2.30 	0.97
39 	3.00 	0.00 	0.00 	0.00 	61.33 	63.82 	49.67 	83.87 	-0.48 	3.33
40 	0.00 	90.00 	0.00 	0.00 	35.50 	24.40 	19.98 	56.49 	45.92 	0.32
41 	0.00 	80.00 	0.00 	0.00 	36.41 	25.59 	21.12 	57.65 	43.96 	-0.01
42 	0.00 	70.00 	0.00 	0.00 	37.63 	27.19 	22.59 	59.15 	41.47 	-0.29
43 	0.00 	60.00 	0.00 	0.00 	39.26 	29.38 	24.51 	61.12 	38.20 	-0.48
44 	0.00 	50.00 	0.00 	0.00 	41.50 	32.42 	26.96 	63.69 	34.02 	-0.35
45 	0.00 	40.00 	0.00 	0.00 	44.24 	36.24 	29.95 	66.70 	29.16 	-0.07
46 	0.00 	30.00 	0.00 	0.00 	47.82 	41.33 	33.74 	70.41 	23.33 	0.53
47 	0.00 	25.00 	0.00 	0.00 	49.88 	44.33 	35.90 	72.45 	20.13 	0.95
48 	0.00 	20.00 	0.00 	0.00 	52.15 	47.69 	38.22 	74.63 	16.73 	1.52
49 	0.00 	15.00 	0.00 	0.00 	54.83 	51.68 	40.89 	77.09 	12.99 	2.23
50 	0.00 	10.00 	0.00 	0.00 	57.75 	56.11 	43.74 	79.68 	9.07 	3.10
51 	0.00 	7.00 	0.00 	0.00 	59.65 	59.01 	45.57 	81.30 	6.65 	3.67
52 	0.00 	3.00 	0.00 	0.00 	62.33 	63.14 	48.12 	83.52 	3.38 	4.49
53 	0.00 	0.00 	90.00 	0.00 	54.97 	57.63 	12.67 	80.53 	-1.50 	59.34
54 	0.00 	0.00 	80.00 	0.00 	55.25 	57.97 	13.75 	80.72 	-1.61 	56.71
55 	0.00 	0.00 	70.00 	0.00 	55.63 	58.41 	15.18 	80.97 	-1.71 	53.44
56 	0.00 	0.00 	60.00 	0.00 	56.11 	58.94 	17.06 	81.26 	-1.78 	49.43
57 	0.00 	0.00 	50.00 	0.00 	56.77 	59.59 	19.65 	81.61 	-1.69 	44.34
58 	0.00 	0.00 	40.00 	0.00 	57.60 	60.36 	23.04 	82.03 	-1.46 	38.31
59 	0.00 	0.00 	30.00 	0.00 	58.76 	61.42 	27.53 	82.60 	-1.11 	31.30
60 	0.00 	0.00 	25.00 	0.00 	59.44 	62.03 	30.23 	82.93 	-0.88 	27.46
61 	0.00 	0.00 	20.00 	0.00 	60.22 	62.72 	33.28 	83.29 	-0.60 	23.43
62 	0.00 	0.00 	15.00 	0.00 	61.13 	63.53 	36.90 	83.72 	-0.30 	18.99
63 	0.00 	0.00 	10.00 	0.00 	62.13 	64.41 	40.89 	84.18 	0.06 	14.46
64 	0.00 	0.00 	7.00 	0.00 	62.80 	64.99 	43.54 	84.48 	0.31 	11.63
65 	0.00 	0.00 	3.00 	0.00 	63.71 	65.79 	47.21 	84.89 	0.63 	7.92
66 	0.00 	0.00 	0.00 	90.00 	10.60 	10.79 	7.71 	39.22 	1.49 	4.46
67 	0.00 	0.00 	0.00 	80.00 	12.16 	12.39 	8.91 	41.83 	1.47 	4.47
68 	0.00 	0.00 	0.00 	70.00 	14.31 	14.60 	10.56 	45.08 	1.44 	4.53
69 	0.00 	0.00 	0.00 	60.00 	16.78 	17.14 	12.49 	48.44 	1.41 	4.51
70 	0.00 	0.00 	0.00 	50.00 	20.63 	21.11 	15.50 	53.07 	1.34 	4.55
71 	0.00 	0.00 	0.00 	40.00 	25.44 	26.08 	19.29 	58.11 	1.24 	4.58
72 	0.00 	0.00 	0.00 	30.00 	32.08 	32.95 	24.54 	64.12 	1.12 	4.64
73 	0.00 	0.00 	0.00 	25.00 	35.99 	36.98 	27.64 	67.26 	1.11 	4.66
74 	0.00 	0.00 	0.00 	20.00 	40.41 	41.55 	31.14 	70.56 	1.07 	4.71
75 	0.00 	0.00 	0.00 	15.00 	45.61 	46.93 	35.24 	74.14 	1.03 	4.81
76 	0.00 	0.00 	0.00 	10.00 	51.32 	52.84 	39.74 	77.78 	0.98 	4.92
77 	0.00 	0.00 	0.00 	7.00 	55.09 	56.74 	42.72 	80.03 	0.96 	4.98
78 	0.00 	0.00 	0.00 	3.00 	60.31 	62.14 	46.84 	82.99 	0.93 	5.07
79 	40.00 	100.00 	0.00 	0.00 	20.37 	16.43 	19.38 	47.53 	23.94 	-13.85
80 	40.00 	100.00 	40.00 	0.00 	18.62 	15.54 	12.50 	46.37 	20.19 	0.91
81 	0.00 	100.00 	40.00 	0.00 	32.99 	22.56 	12.18 	54.62 	45.33 	16.06
82 	40.00 	100.00 	100.00 	0.00 	17.77 	15.08 	9.18 	45.74 	18.40 	10.27
83 	0.00 	40.00 	100.00 	0.00 	38.76 	32.11 	9.87 	63.43 	26.62 	38.41
84 	40.00 	40.00 	100.00 	0.00 	21.15 	21.18 	10.31 	53.15 	3.50 	19.23
85 	70.00 	70.00 	70.00 	0.00 	14.27 	14.32 	10.93 	44.69 	2.89 	2.69
86 	40.00 	0.00 	100.00 	0.00 	27.54 	34.35 	11.92 	65.24 	-20.89 	35.13
87 	100.00 	40.00 	100.00 	0.00 	12.84 	15.43 	10.39 	46.22 	-12.85 	7.03
88 	100.00 	0.00 	40.00 	0.00 	17.06 	24.33 	19.92 	56.42 	-31.44 	0.33
89 	100.00 	40.00 	40.00 	0.00 	13.75 	16.05 	15.38 	47.04 	-10.50 	-5.55
90 	100.00 	40.00 	0.00 	0.00 	16.02 	17.36 	26.24 	48.71 	-4.05 	-24.94
91 	100.00 	100.00 	40.00 	0.00 	11.91 	12.05 	12.66 	41.30 	2.05 	-8.28
92 	70.00 	100.00 	20.00 	0.00 	14.74 	13.52 	15.35 	43.54 	10.73 	-11.52
93 	20.00 	70.00 	20.00 	0.00 	26.80 	21.44 	17.07 	53.43 	27.05 	1.42
94 	20.00 	70.00 	40.00 	0.00 	25.85 	20.89 	13.54 	52.83 	25.73 	9.18
95 	20.00 	100.00 	70.00 	0.00 	23.61 	18.01 	10.04 	49.51 	30.44 	13.84
96 	20.00 	70.00 	70.00 	0.00 	25.12 	20.42 	10.68 	52.31 	24.90 	16.61
97 	20.00 	70.00 	100.00 	0.00 	24.80 	20.20 	9.38 	52.06 	24.60 	20.47
98 	20.00 	20.00 	70.00 	0.00 	32.69 	33.15 	13.22 	64.28 	2.60 	29.80
99 	70.00 	20.00 	100.00 	0.00 	17.16 	21.13 	11.11 	53.09 	-16.56 	16.62
100 	70.00 	20.00 	70.00 	0.00 	17.53 	21.46 	13.12 	53.45 	-16.10 	11.39
101 	100.00 	20.00 	70.00 	0.00 	14.26 	18.69 	12.95 	50.32 	-21.46 	6.47
102 	70.00 	20.00 	20.00 	0.00 	19.80 	23.15 	23.56 	55.23 	-12.03 	-8.89
103 	100.00 	70.00 	20.00 	0.00 	13.26 	13.70 	16.79 	43.80 	0.33 	-14.53
104 	70.00 	70.00 	20.00 	0.00 	15.65 	15.13 	16.90 	45.81 	6.31 	-11.32
105 	70.00 	100.00 	70.00 	0.00 	13.51 	12.84 	10.36 	42.52 	7.45 	0.75
106 	40.00 	70.00 	40.00 	0.00 	19.76 	17.49 	13.60 	48.87 	15.17 	2.19
107 	20.00 	40.00 	20.00 	0.00 	30.81 	27.67 	20.91 	59.59 	16.01 	3.77
108 	70.00 	100.00 	100.00 	0.00 	13.25 	12.68 	9.32 	42.28 	6.82 	3.80
109 	20.00 	40.00 	40.00 	0.00 	29.53 	26.80 	15.88 	58.79 	14.66 	13.48
110 	70.00 	70.00 	100.00 	0.00 	14.02 	14.17 	9.70 	44.48 	2.25 	6.30
111 	40.00 	40.00 	70.00 	0.00 	21.55 	21.52 	12.03 	53.51 	3.80 	14.59
112 	20.00 	20.00 	40.00 	0.00 	34.03 	34.32 	18.52 	65.22 	3.28 	18.49
113 	20.00 	20.00 	20.00 	0.00 	35.73 	35.64 	25.30 	66.24 	4.63 	6.94
114 	100.00 	70.00 	100.00 	0.00 	11.67 	12.72 	9.72 	42.34 	-4.13 	2.54
115 	70.00 	40.00 	70.00 	0.00 	15.80 	17.56 	12.01 	48.96 	-6.38 	6.79
116 	40.00 	20.00 	40.00 	0.00 	25.47 	27.79 	18.17 	59.70 	-5.47 	9.74
117 	100.00 	70.00 	70.00 	0.00 	11.93 	12.91 	10.93 	42.63 	-3.56 	-0.87
118 	40.00 	40.00 	20.00 	0.00 	23.50 	22.83 	20.56 	54.90 	6.73 	-3.61
119 	100.00 	100.00 	70.00 	0.00 	11.40 	11.73 	10.42 	40.78 	0.65 	-2.43
120 	40.00 	20.00 	20.00 	0.00 	26.99 	28.94 	24.53 	60.73 	-3.65 	-1.19
121 	70.00 	40.00 	40.00 	0.00 	16.56 	18.08 	15.59 	49.59 	-4.80 	-1.67
122 	100.00 	85.00 	85.00 	100.00 	6.98 	7.29 	5.84 	32.46 	-0.49 	0.82
123 	100.00 	85.00 	85.00 	80.00 	7.35 	7.69 	6.14 	33.33 	-0.62 	0.93
124 	100.00 	85.00 	85.00 	60.00 	7.83 	8.23 	6.56 	34.46 	-0.97 	1.00
125 	80.00 	65.00 	65.00 	100.00 	7.45 	7.74 	6.06 	33.44 	-0.12 	1.48
126 	80.00 	65.00 	65.00 	80.00 	7.87 	8.19 	6.40 	34.38 	-0.25 	1.56
127 	80.00 	65.00 	65.00 	60.00 	8.41 	8.78 	6.88 	35.56 	-0.49 	1.52
128 	80.00 	65.00 	65.00 	40.00 	9.37 	9.81 	7.74 	37.50 	-0.73 	1.37
129 	60.00 	45.00 	45.00 	100.00 	7.88 	8.14 	6.31 	34.27 	0.29 	1.79
130 	60.00 	45.00 	45.00 	80.00 	8.48 	8.78 	6.79 	35.56 	0.12 	1.90
131 	60.00 	45.00 	45.00 	60.00 	9.28 	9.65 	7.47 	37.21 	-0.20 	1.93
132 	60.00 	45.00 	45.00 	40.00 	10.77 	11.25 	8.76 	40.00 	-0.58 	1.85
133 	60.00 	45.00 	45.00 	20.00 	13.42 	14.03 	11.05 	44.28 	-0.69 	1.60
134 	40.00 	27.00 	27.00 	100.00 	8.28 	8.50 	6.54 	35.00 	0.75 	2.03
135 	40.00 	27.00 	27.00 	80.00 	9.27 	9.56 	7.30 	37.04 	0.43 	2.34
136 	40.00 	27.00 	27.00 	60.00 	10.67 	11.05 	8.43 	39.66 	0.12 	2.48
137 	40.00 	27.00 	27.00 	40.00 	13.30 	13.82 	10.62 	43.97 	-0.17 	2.43
138 	40.00 	27.00 	27.00 	20.00 	17.92 	18.66 	14.57 	50.29 	-0.38 	2.09
139 	40.00 	27.00 	27.00 	10.00 	21.28 	22.16 	17.45 	54.20 	-0.41 	1.87
140 	20.00 	12.00 	12.00 	100.00 	8.73 	8.90 	6.66 	35.79 	1.28 	2.86
141 	20.00 	12.00 	12.00 	80.00 	10.53 	10.79 	8.04 	39.22 	0.96 	3.19
142 	20.00 	12.00 	12.00 	60.00 	13.17 	13.54 	10.11 	43.57 	0.75 	3.37
143 	20.00 	12.00 	12.00 	40.00 	17.98 	18.56 	14.00 	50.17 	0.45 	3.37
144 	20.00 	12.00 	12.00 	20.00 	26.32 	27.26 	20.92 	59.21 	0.15 	3.10
145 	20.00 	12.00 	12.00 	10.00 	32.44 	33.63 	26.05 	64.67 	0.05 	2.90
146 	10.00 	6.00 	6.00 	100.00 	8.98 	9.14 	6.68 	36.25 	1.41 	3.57
147 	10.00 	6.00 	6.00 	80.00 	11.36 	11.61 	8.55 	40.59 	1.20 	3.63
148 	10.00 	6.00 	6.00 	60.00 	14.87 	15.24 	11.26 	45.96 	1.06 	3.87
149 	10.00 	6.00 	6.00 	40.00 	21.35 	21.96 	16.42 	53.98 	0.83 	3.90
150 	10.00 	6.00 	6.00 	20.00 	32.57 	33.61 	25.56 	64.65 	0.58 	3.73
151 	10.00 	6.00 	6.00 	10.00 	40.70 	42.02 	32.16 	70.88 	0.56 	3.71
152 	100.00 	85.00 	85.00 	0.00 	11.46 	12.10 	9.99 	41.37 	-1.47 	-0.02
153 	80.00 	65.00 	65.00 	0.00 	13.54 	14.14 	11.38 	44.43 	-0.60 	0.87
154 	60.00 	45.00 	45.00 	0.00 	17.46 	18.20 	14.48 	49.74 	-0.48 	1.37
155 	40.00 	27.00 	27.00 	0.00 	25.11 	26.14 	20.71 	58.17 	-0.40 	1.72
156 	20.00 	12.00 	12.00 	0.00 	39.49 	40.98 	32.01 	70.16 	-0.07 	2.69
157 	10.00 	6.00 	6.00 	0.00 	50.32 	51.98 	39.97 	77.27 	0.53 	3.74
158 	5.00 	3.00 	3.00 	0.00 	56.97 	58.77 	44.76 	81.17 	0.74 	4.42
159 	100.00 	0.00 	0.00 	20.00 	15.01 	18.90 	24.58 	50.57 	-17.97 	-18.79
160 	0.00 	100.00 	0.00 	20.00 	23.27 	16.80 	13.38 	48.01 	35.41 	1.30
161 	0.00 	0.00 	100.00 	20.00 	33.99 	35.60 	9.13 	66.21 	-1.16 	45.73
162 	100.00 	100.00 	0.00 	20.00 	10.86 	10.53 	14.08 	38.78 	5.36 	-16.48
163 	100.00 	0.00 	100.00 	20.00 	12.16 	16.95 	9.55 	48.20 	-25.97 	13.22
164 	0.00 	100.00 	100.00 	20.00 	21.97 	16.17 	7.25 	47.20 	32.99 	20.05
165 	40.00 	40.00 	0.00 	20.00 	17.89 	17.22 	18.57 	48.54 	7.00 	-10.38
166 	40.00 	0.00 	40.00 	20.00 	20.60 	24.62 	14.89 	56.70 	-14.47 	12.33
167 	0.00 	40.00 	40.00 	20.00 	26.96 	23.20 	11.78 	55.28 	19.72 	18.37
168 	100.00 	100.00 	0.00 	40.00 	9.13 	8.97 	10.63 	35.93 	4.07 	-11.48
169 	100.00 	0.00 	100.00 	40.00 	10.04 	13.21 	7.98 	43.08 	-19.42 	10.06
170 	0.00 	100.00 	100.00 	40.00 	15.95 	12.57 	6.28 	42.11 	24.01 	15.43
171 	40.00 	40.00 	0.00 	40.00 	13.20 	12.85 	12.80 	42.54 	5.38 	-6.53
172 	40.00 	0.00 	40.00 	40.00 	14.77 	17.19 	10.82 	48.50 	-10.48 	9.60
173 	0.00 	40.00 	40.00 	40.00 	18.57 	16.51 	8.98 	47.64 	14.45 	14.23
174 	100.00 	0.00 	0.00 	70.00 	8.58 	9.91 	10.13 	37.68 	-8.16 	-6.85
175 	0.00 	100.00 	0.00 	70.00 	11.36 	9.48 	7.09 	36.89 	17.13 	2.94
176 	0.00 	0.00 	100.00 	70.00 	13.96 	14.54 	6.10 	45.00 	-0.37 	21.23
177 	100.00 	100.00 	0.00 	70.00 	7.81 	7.74 	8.18 	33.44 	3.25 	-7.33
178 	100.00 	0.00 	100.00 	70.00 	8.49 	10.51 	6.79 	38.74 	-13.52 	7.39
179 	0.00 	100.00 	100.00 	70.00 	11.90 	10.00 	5.59 	37.84 	16.86 	11.30
180 	40.00 	40.00 	0.00 	70.00 	9.79 	9.65 	8.81 	37.21 	3.92 	-3.14
181 	40.00 	0.00 	40.00 	70.00 	10.60 	11.91 	7.91 	41.07 	-6.48 	6.87
182 	0.00 	40.00 	40.00 	70.00 	12.59 	11.57 	6.86 	40.52 	10.02 	10.17
183 	0.00 	0.00 	0.00 	0.00 	64.42 	66.40 	50.09 	85.20 	0.90 	5.14
184 	0.00 	10.00 	0.00 	0.00 	57.75 	56.11 	43.74 	79.68 	9.07 	3.10
185 	0.00 	20.00 	0.00 	0.00 	52.15 	47.69 	38.22 	74.63 	16.73 	1.52
186 	0.00 	40.00 	0.00 	0.00 	44.24 	36.24 	29.95 	66.70 	29.16 	-0.07
187 	0.00 	70.00 	0.00 	0.00 	37.63 	27.19 	22.59 	59.15 	41.47 	-0.29
188 	0.00 	100.00 	0.00 	0.00 	34.74 	23.42 	19.03 	55.50 	47.59 	0.63
189 	10.00 	0.00 	0.00 	0.00 	54.63 	58.16 	48.64 	80.83 	-3.63 	-0.75
190 	10.00 	10.00 	0.00 	0.00 	49.29 	49.50 	42.45 	75.76 	4.27 	-2.04
191 	10.00 	20.00 	0.00 	0.00 	44.66 	42.26 	37.16 	71.05 	11.64 	-3.21
192 	10.00 	40.00 	0.00 	0.00 	38.04 	32.36 	29.39 	63.64 	23.44 	-4.46
193 	10.00 	70.00 	0.00 	0.00 	32.53 	24.55 	22.49 	56.63 	35.00 	-4.44
194 	10.00 	100.00 	0.00 	0.00 	30.06 	21.20 	19.14 	53.17 	40.90 	-3.63
195 	20.00 	0.00 	0.00 	0.00 	46.48 	51.12 	47.12 	76.75 	-7.75 	-6.01
196 	20.00 	10.00 	0.00 	0.00 	42.09 	43.71 	41.21 	72.03 	-0.17 	-6.89
197 	20.00 	20.00 	0.00 	0.00 	38.26 	37.50 	36.17 	67.65 	6.85 	-7.70
198 	20.00 	40.00 	0.00 	0.00 	32.79 	28.98 	28.89 	60.76 	18.12 	-8.61
199 	20.00 	70.00 	0.00 	0.00 	28.17 	22.21 	22.40 	54.25 	28.97 	-8.38
200 	20.00 	100.00 	0.00 	0.00 	26.08 	19.27 	19.25 	51.00 	34.56 	-7.60
201 	40.00 	0.00 	0.00 	0.00 	34.90 	40.76 	44.42 	70.01 	-14.39 	-14.40
202 	40.00 	10.00 	0.00 	0.00 	31.87 	35.20 	39.12 	65.90 	-7.33 	-14.73
203 	40.00 	20.00 	0.00 	0.00 	29.12 	30.44 	34.56 	62.03 	-0.88 	-15.10
204 	40.00 	40.00 	0.00 	0.00 	25.20 	23.92 	27.97 	56.01 	9.30 	-15.29
205 	40.00 	70.00 	0.00 	0.00 	21.91 	18.72 	22.20 	50.36 	19.09 	-14.70
206 	40.00 	100.00 	0.00 	0.00 	20.37 	16.43 	19.38 	47.53 	23.94 	-13.85
207 	70.00 	0.00 	0.00 	0.00 	25.41 	31.77 	41.48 	63.15 	-20.61 	-22.55
208 	70.00 	10.00 	0.00 	0.00 	23.41 	27.77 	36.76 	59.68 	-14.29 	-22.26
209 	70.00 	20.00 	0.00 	0.00 	21.62 	24.35 	32.78 	56.44 	-8.47 	-22.13
210 	70.00 	40.00 	0.00 	0.00 	19.05 	19.60 	26.93 	51.38 	0.77 	-21.52
211 	70.00 	70.00 	0.00 	0.00 	16.76 	15.73 	21.87 	46.62 	9.14 	-20.50
212 	70.00 	100.00 	0.00 	0.00 	15.67 	14.00 	19.44 	44.23 	13.23 	-19.67
213 	100.00 	0.00 	0.00 	0.00 	20.78 	27.14 	39.64 	59.10 	-23.95 	-27.15
214 	100.00 	10.00 	0.00 	0.00 	19.28 	23.95 	35.31 	56.04 	-18.13 	-26.51
215 	100.00 	20.00 	0.00 	0.00 	17.95 	21.20 	31.64 	53.17 	-12.64 	-26.04
216 	100.00 	40.00 	0.00 	0.00 	16.02 	17.36 	26.24 	48.71 	-4.05 	-24.94
217 	100.00 	70.00 	0.00 	0.00 	14.26 	14.21 	21.64 	44.53 	3.50 	-23.65
218 	100.00 	100.00 	0.00 	0.00 	13.41 	12.81 	19.48 	42.48 	7.00 	-22.79
219 	0.00 	0.00 	10.00 	0.00 	62.13 	64.41 	40.89 	84.18 	0.06 	14.46
220 	0.00 	10.00 	10.00 	0.00 	55.93 	54.62 	35.96 	78.82 	8.28 	11.86
221 	0.00 	20.00 	10.00 	0.00 	50.63 	46.52 	31.69 	73.88 	15.96 	9.60
222 	0.00 	40.00 	10.00 	0.00 	43.10 	35.46 	25.29 	66.11 	28.40 	6.72
223 	0.00 	70.00 	10.00 	0.00 	36.98 	26.87 	19.67 	58.85 	40.63 	5.05
224 	0.00 	100.00 	10.00 	0.00 	34.25 	23.19 	16.85 	55.27 	46.92 	5.10
225 	10.00 	0.00 	10.00 	0.00 	52.65 	56.48 	39.68 	79.89 	-4.63 	8.63
226 	10.00 	10.00 	10.00 	0.00 	47.62 	48.16 	35.00 	74.93 	3.30 	6.50
227 	10.00 	20.00 	10.00 	0.00 	43.25 	41.21 	30.96 	70.32 	10.66 	4.58
228 	10.00 	40.00 	10.00 	0.00 	36.98 	31.65 	24.93 	63.05 	22.53 	2.10
229 	10.00 	70.00 	10.00 	0.00 	31.83 	24.17 	19.60 	56.26 	34.10 	0.72
230 	10.00 	100.00 	10.00 	0.00 	29.54 	20.96 	16.95 	52.91 	40.06 	0.80
231 	20.00 	0.00 	10.00 	0.00 	44.68 	49.62 	38.55 	75.84 	-8.93 	3.15
232 	20.00 	10.00 	10.00 	0.00 	40.55 	42.49 	34.10 	71.21 	-1.29 	1.39
233 	20.00 	20.00 	10.00 	0.00 	36.96 	36.54 	30.27 	66.93 	5.75 	-0.18
234 	20.00 	40.00 	10.00 	0.00 	31.76 	28.30 	24.58 	60.16 	17.04 	-2.26
235 	20.00 	70.00 	10.00 	0.00 	27.46 	21.81 	19.55 	53.82 	27.99 	-3.37
236 	20.00 	100.00 	10.00 	0.00 	25.54 	19.02 	17.05 	50.71 	33.56 	-3.22
237 	40.00 	0.00 	10.00 	0.00 	33.38 	39.54 	36.58 	69.14 	-15.90 	-5.70
238 	40.00 	10.00 	10.00 	0.00 	30.53 	34.18 	32.56 	65.11 	-8.80 	-6.85
239 	40.00 	20.00 	10.00 	0.00 	28.01 	29.65 	29.10 	61.35 	-2.27 	-7.94
240 	40.00 	40.00 	10.00 	0.00 	24.30 	23.34 	23.96 	55.42 	7.98 	-9.30
241 	40.00 	70.00 	10.00 	0.00 	21.24 	18.34 	19.39 	49.91 	17.89 	-9.78
242 	40.00 	100.00 	10.00 	0.00 	19.86 	16.18 	17.17 	47.21 	22.83 	-9.53
243 	70.00 	0.00 	10.00 	0.00 	24.09 	30.76 	34.36 	62.30 	-22.61 	-14.34
244 	70.00 	10.00 	10.00 	0.00 	22.30 	27.00 	30.84 	58.97 	-16.25 	-14.79
245 	70.00 	20.00 	10.00 	0.00 	20.67 	23.73 	27.79 	55.82 	-10.31 	-15.32
246 	70.00 	40.00 	10.00 	0.00 	18.27 	19.13 	23.23 	50.84 	-0.92 	-15.84
247 	70.00 	70.00 	10.00 	0.00 	16.18 	15.41 	19.21 	46.19 	7.72 	-15.81
248 	70.00 	100.00 	10.00 	0.00 	15.18 	13.75 	17.24 	43.87 	11.91 	-15.45
249 	100.00 	0.00 	10.00 	0.00 	19.60 	26.28 	32.95 	58.30 	-26.28 	-19.17
250 	100.00 	10.00 	10.00 	0.00 	18.28 	23.26 	29.70 	55.34 	-20.26 	-19.27
251 	100.00 	20.00 	10.00 	0.00 	17.09 	20.66 	26.90 	52.58 	-14.72 	-19.41
252 	100.00 	40.00 	10.00 	0.00 	15.34 	16.98 	22.74 	48.23 	-5.95 	-19.40
253 	100.00 	70.00 	10.00 	0.00 	13.74 	13.94 	19.05 	44.15 	1.91 	-18.99
254 	100.00 	100.00 	10.00 	0.00 	12.98 	12.60 	17.28 	42.15 	5.59 	-18.50
255 	0.00 	0.00 	20.00 	0.00 	60.22 	62.72 	33.28 	83.29 	-0.60 	23.43
256 	0.00 	10.00 	20.00 	0.00 	54.33 	53.30 	29.53 	78.05 	7.58 	20.17
257 	0.00 	20.00 	20.00 	0.00 	49.24 	45.42 	26.22 	73.17 	15.31 	17.26
258 	0.00 	40.00 	20.00 	0.00 	42.06 	34.73 	21.35 	65.54 	27.74 	13.14
259 	0.00 	70.00 	20.00 	0.00 	36.28 	26.47 	17.06 	58.48 	39.93 	10.16
260 	0.00 	100.00 	20.00 	0.00 	33.72 	22.92 	14.94 	54.99 	46.28 	9.25
261 	10.00 	0.00 	20.00 	0.00 	50.91 	54.98 	32.42 	79.03 	-5.49 	17.36
262 	10.00 	10.00 	20.00 	0.00 	46.14 	46.97 	28.85 	74.17 	2.42 	14.57
263 	10.00 	20.00 	20.00 	0.00 	41.93 	40.20 	25.73 	69.61 	9.79 	11.99
264 	10.00 	40.00 	20.00 	0.00 	36.01 	30.99 	21.11 	62.50 	21.71 	8.38
265 	10.00 	70.00 	20.00 	0.00 	31.17 	23.80 	17.06 	55.89 	33.30 	5.68
266 	10.00 	100.00 	20.00 	0.00 	29.01 	20.70 	15.01 	52.62 	39.26 	4.99
267 	20.00 	0.00 	20.00 	0.00 	43.07 	48.27 	31.57 	74.99 	-10.01 	11.70
268 	20.00 	10.00 	20.00 	0.00 	39.16 	41.40 	28.19 	70.46 	-2.38 	9.25
269 	20.00 	20.00 	20.00 	0.00 	35.73 	35.64 	25.30 	66.24 	4.63 	6.94
270 	20.00 	40.00 	20.00 	0.00 	30.81 	27.67 	20.91 	59.59 	16.01 	3.77
271 	20.00 	70.00 	20.00 	0.00 	26.80 	21.44 	17.07 	53.43 	27.05 	1.42
272 	20.00 	100.00 	20.00 	0.00 	25.01 	18.75 	15.11 	50.39 	32.69 	0.90
273 	40.00 	0.00 	20.00 	0.00 	31.98 	38.41 	30.10 	68.32 	-17.35 	2.48
274 	40.00 	10.00 	20.00 	0.00 	29.30 	33.25 	27.08 	64.36 	-10.24 	0.61
275 	40.00 	20.00 	20.00 	0.00 	26.99 	28.94 	24.53 	60.73 	-3.65 	-1.19
276 	40.00 	40.00 	20.00 	0.00 	23.50 	22.83 	20.56 	54.90 	6.73 	-3.61
277 	40.00 	70.00 	20.00 	0.00 	20.62 	17.99 	16.99 	49.48 	16.74 	-5.19
278 	40.00 	100.00 	20.00 	0.00 	19.33 	15.89 	15.24 	46.83 	21.81 	-5.57
279 	70.00 	0.00 	20.00 	0.00 	22.94 	29.88 	28.49 	61.55 	-24.45 	-6.60
280 	70.00 	10.00 	20.00 	0.00 	21.30 	26.27 	25.84 	58.29 	-17.97 	-7.72
281 	70.00 	20.00 	20.00 	0.00 	19.80 	23.15 	23.56 	55.23 	-12.03 	-8.89
282 	70.00 	40.00 	20.00 	0.00 	17.57 	18.72 	20.06 	50.36 	-2.56 	-10.41
283 	70.00 	70.00 	20.00 	0.00 	15.65 	15.13 	16.90 	45.81 	6.31 	-11.32
284 	70.00 	100.00 	20.00 	0.00 	14.74 	13.52 	15.35 	43.54 	10.73 	-11.52
285 	100.00 	0.00 	20.00 	0.00 	18.55 	25.49 	27.41 	57.55 	-28.38 	-11.70
286 	100.00 	10.00 	20.00 	0.00 	17.37 	22.62 	24.97 	54.68 	-22.26 	-12.41
287 	100.00 	20.00 	20.00 	0.00 	16.31 	20.16 	22.88 	52.02 	-16.66 	-13.14
288 	100.00 	40.00 	20.00 	0.00 	14.70 	16.61 	19.69 	47.76 	-7.74 	-14.11
289 	100.00 	70.00 	20.00 	0.00 	13.26 	13.70 	16.79 	43.80 	0.33 	-14.53
290 	100.00 	100.00 	20.00 	0.00 	12.56 	12.39 	15.40 	41.83 	4.19 	-14.59
291 	0.00 	0.00 	40.00 	0.00 	57.60 	60.36 	23.04 	82.03 	-1.46 	38.31
292 	0.00 	10.00 	40.00 	0.00 	52.08 	51.36 	20.87 	76.90 	6.78 	33.69
293 	0.00 	20.00 	40.00 	0.00 	47.29 	43.81 	18.91 	72.10 	14.56 	29.51
294 	0.00 	40.00 	40.00 	0.00 	40.58 	33.64 	15.93 	64.68 	26.96 	23.51
295 	0.00 	70.00 	40.00 	0.00 	35.22 	25.80 	13.39 	57.85 	39.11 	18.24
296 	0.00 	100.00 	40.00 	0.00 	32.99 	22.56 	12.18 	54.62 	45.33 	16.06
297 	10.00 	0.00 	40.00 	0.00 	48.37 	52.74 	22.60 	77.72 	-6.68 	31.71
298 	10.00 	10.00 	40.00 	0.00 	43.97 	45.14 	20.51 	72.98 	1.30 	27.67
299 	10.00 	20.00 	40.00 	0.00 	40.09 	38.72 	18.67 	68.55 	8.75 	23.90
300 	10.00 	40.00 	40.00 	0.00 	34.60 	30.01 	15.92 	61.66 	20.55 	18.34
301 	10.00 	70.00 	40.00 	0.00 	30.17 	23.20 	13.46 	55.28 	32.21 	13.62
302 	10.00 	100.00 	40.00 	0.00 	28.26 	20.33 	12.26 	52.21 	38.12 	11.67
303 	20.00 	0.00 	40.00 	0.00 	40.72 	46.21 	22.15 	73.68 	-11.43 	25.61
304 	20.00 	10.00 	40.00 	0.00 	37.16 	39.75 	20.20 	69.29 	-3.77 	21.94
305 	20.00 	20.00 	40.00 	0.00 	34.03 	34.32 	18.52 	65.22 	3.28 	18.49
306 	20.00 	40.00 	40.00 	0.00 	29.53 	26.80 	15.88 	58.79 	14.66 	13.48
307 	20.00 	70.00 	40.00 	0.00 	25.85 	20.89 	13.54 	52.83 	25.73 	9.18
308 	20.00 	100.00 	40.00 	0.00 	24.26 	18.38 	12.35 	49.95 	31.37 	7.53
309 	40.00 	0.00 	40.00 	0.00 	29.88 	36.63 	21.33 	67.00 	-19.40 	15.70
310 	40.00 	10.00 	40.00 	0.00 	27.56 	31.87 	19.65 	63.24 	-12.17 	12.65
311 	40.00 	20.00 	40.00 	0.00 	25.47 	27.79 	18.17 	59.70 	-5.47 	9.74
312 	40.00 	40.00 	40.00 	0.00 	22.43 	22.16 	15.81 	54.20 	4.94 	5.73
313 	40.00 	70.00 	40.00 	0.00 	19.76 	17.49 	13.60 	48.87 	15.17 	2.19
314 	40.00 	100.00 	40.00 	0.00 	18.62 	15.54 	12.50 	46.37 	20.19 	0.91
315 	70.00 	0.00 	40.00 	0.00 	21.24 	28.49 	20.51 	60.33 	-27.03 	5.85
316 	70.00 	10.00 	40.00 	0.00 	19.82 	25.14 	19.01 	57.21 	-20.48 	3.62
317 	70.00 	20.00 	40.00 	0.00 	18.50 	22.21 	17.69 	54.25 	-14.42 	1.42
318 	70.00 	40.00 	40.00 	0.00 	16.56 	18.08 	15.59 	49.59 	-4.80 	-1.67
319 	70.00 	70.00 	40.00 	0.00 	14.89 	14.71 	13.61 	45.23 	4.31 	-4.10
320 	70.00 	100.00 	40.00 	0.00 	14.08 	13.17 	12.62 	43.02 	8.91 	-5.20
321 	100.00 	0.00 	40.00 	0.00 	17.06 	24.33 	19.92 	56.42 	-31.44 	0.33
322 	100.00 	10.00 	40.00 	0.00 	16.02 	21.61 	18.52 	53.61 	-25.17 	-1.52
323 	100.00 	20.00 	40.00 	0.00 	15.10 	19.29 	17.29 	51.02 	-19.39 	-3.23
324 	100.00 	40.00 	40.00 	0.00 	13.75 	16.05 	15.38 	47.04 	-10.50 	-5.55
325 	100.00 	70.00 	40.00 	0.00 	12.53 	13.28 	13.56 	43.18 	-1.84 	-7.51
326 	100.00 	100.00 	40.00 	0.00 	11.91 	12.05 	12.66 	41.30 	2.05 	-8.28
