data/profiles/TR005.ti3
CTI3

KEYWORD "DEVICE_CLASS"
DEVICE_CLASS "OUTPUT"
KEYWORD "COLOR_REP"
COLOR_REP "CMYK_LAB"

ORIGINATOR  "ANSI CGATS and SWOP Committee"
FILE_DESCRIPTOR "Color Characterization Data for SWOP proofing on Grade 5 coated paper"
CREATED  "8/3/2006  Time: 20:57"
# This file is provided in support of ANSI/CGATS/SWOP TR 005-2007
TARGET_TYPE "ANSI IT8.7/4"
COPYRIGHT "Copyright 2007 by NPES The Association for Suppliers of Printing, Publishing and Converting Technologies."
# Profiles, or other derivative work, based on these data may be distributed with no further permissions from CGATS.
# However, this Technical Report must be identified as the source of the characterization data.
PRINT_CONDITIONS "See ANSI CGATS/SWOP TR 005-2007"
ILLUMINANT "D50"
MEASUREMENT_GEOMETRY "0/45"
OBSERVER "CIE 2 degree"
SAMPLE_BACKING "White"
# For computations of data over a black backing using the method defined in Annex A
# of ANSI/CGATS/SWOP TR 005-2007 a reference value for the substrate
# over black is XYZ_X =69.06, XYZ_Y = 71.97, XYZ_Z = 57.14
# Data extracted from this characterization data set for the IDEAliance ISO 12647-7 Digital Control Strip 2007
#  is available at www.SWOP.org

NUMBER_OF_FIELDS   11
BEGIN_DATA_FORMAT
SAMPLE_ID  CMYK_C CMYK_M CMYK_Y CMYK_K XYZ_X XYZ_Y XYZ_Z LAB_L LAB_A LAB_B
END_DATA_FORMAT

NUMBER_OF_SETS    1617
BEGIN_DATA
1 0 0 0 0 73.68 76.42 58.88 90.06 -0.01 4.14
2 0 10 0 0 66.85 66.34 52.38 85.17 6.45 2.55
3 0 20 0 0 61.01 57.81 46.59 80.63 12.73 1.31
4 0 30 0 0 55.39 49.7 40.92 75.88 19.59 0.11
5 0 40 0 0 50.39 42.58 35.77 71.27 26.57 -0.9
6 0 55 0 0 43.83 33.37 28.86 64.46 37.65 -2.19
7 0 70 0 0 38.65 26.11 23.08 58.14 49.08 -2.95
8 0 85 0 0 34.48 20.45 18.39 52.34 60.31 -3.42
9 0 100 0 0 31.48 16.52 14.99 47.64 69.97 -3.54
10 10 0 0 0 63.8 67.88 57.31 85.95 -3.74 -1.34
11 10 10 0 0 58.14 59.21 51.1 81.41 2.55 -2.52
12 10 20 0 0 52.99 51.55 45.47 77.01 8.67 -3.61
13 10 30 0 0 48.1 44.3 39.97 72.43 15.38 -4.6
14 10 40 0 0 43.69 37.89 34.98 67.94 22.23 -5.52
15 10 55 0 0 38.13 29.78 28.38 61.46 33.11 -6.57
16 10 70 0 0 33.56 23.23 22.82 55.31 44.33 -7.34
17 10 85 0 0 29.93 18.14 18.29 49.66 55.5 -7.81
18 10 100 0 0 27.31 14.6 15.05 45.08 65.07 -8.1
19 20 0 0 0 55.33 60.48 55.74 82.1 -7.36 -6.34
20 20 10 0 0 50.38 52.75 49.8 77.73 -1.28 -7.42
21 20 20 0 0 45.98 45.98 44.39 73.54 4.71 -8.28
22 20 30 0 0 41.74 39.51 39.13 69.12 11.33 -9.21
23 20 40 0 0 37.96 33.84 34.31 64.83 18.04 -9.91
24 20 55 0 0 33.11 26.55 27.94 58.56 28.76 -10.84
25 20 70 0 0 29.12 20.67 22.58 52.59 39.8 -11.57
26 20 85 0 0 25.9 16.07 18.21 47.06 50.79 -12.14
27 20 100 0 0 23.64 12.9 15.09 42.61 60.3 -12.46
28 30 0 0 0 47.61 53.7 54.32 78.29 -11.19 -11.42
29 30 10 0 0 43.38 46.87 48.56 74.1 -5.26 -12.25
30 30 20 0 0 39.59 40.82 43.37 70.05 0.73 -13.04
31 30 30 0 0 35.9 35.06 38.25 65.8 7.14 -13.75
32 30 40 0 0 32.66 30.05 33.66 61.69 13.65 -14.38
33 30 55 0 0 28.47 23.54 27.54 55.62 24.23 -15.24
34 30 70 0 0 24.99 18.28 22.36 49.84 34.99 -15.91
35 30 85 0 0 22.24 14.17 18.17 44.48 45.95 -16.51
36 30 100 0 0 20.24 11.33 15.14 40.12 55.23 -16.87
37 40 0 0 0 40.94 47.74 53 74.66 -14.97 -16.25
38 40 10 0 0 37.3 41.68 47.46 70.65 -9.16 -16.92
39 40 20 0 0 34.03 36.32 42.42 66.76 -3.41 -17.52
40 40 30 0 0 30.86 31.2 37.48 62.67 2.91 -18.1
41 40 40 0 0 28.06 26.72 33.09 58.71 9.32 -18.66
42 40 55 0 0 24.43 20.93 27.16 52.87 19.56 -19.34
43 40 70 0 0 21.44 16.21 22.18 47.25 30.25 -20.01
44 40 85 0 0 19.04 12.54 18.14 42.06 40.9 -20.59
45 40 100 0 0 17.3 9.97 15.22 37.79 50.15 -21.11
46 55 0 0 0 32.35 39.96 51.23 69.44 -20.83 -23.31
47 55 10 0 0 29.51 34.95 45.95 65.71 -15.24 -23.65
48 55 20 0 0 26.92 30.47 41.18 62.06 -9.64 -24.06
49 55 30 0 0 24.44 26.24 36.51 58.26 -3.66 -24.36
50 55 40 0 0 22.21 22.46 32.34 54.51 2.58 -24.8
51 55 55 0 0 19.29 17.55 26.69 48.94 12.52 -25.32
52 55 70 0 0 16.89 13.57 21.96 43.6 22.84 -25.87
53 55 85 0 0 14.97 10.43 18.11 38.61 33.33 -26.48
54 55 100 0 0 13.57 8.26 15.34 34.53 42.27 -27.03
55 70 0 0 0 25.56 33.68 49.65 64.7 -26.67 -29.7
56 70 10 0 0 23.31 29.48 44.68 61.2 -21.29 -29.9
57 70 20 0 0 21.27 25.76 40.16 57.81 -16.03 -30.05
58 70 30 0 0 19.3 22.2 35.72 54.24 -10.27 -30.18
59 70 40 0 0 17.52 19.01 31.69 50.7 -4.26 -30.38
60 70 55 0 0 15.2 14.86 26.35 45.44 5.3 -30.77
61 70 70 0 0 13.26 11.43 21.82 40.3 15.39 -31.31
62 70 85 0 0 11.7 8.76 18.16 35.52 25.47 -31.93
63 70 100 0 0 10.57 6.89 15.51 31.56 34.27 -32.55
64 85 0 0 0 20.05 28.45 48.32 60.29 -32.64 -35.78
65 85 10 0 0 18.29 24.97 43.59 57.05 -27.58 -35.74
66 85 20 0 0 16.67 21.82 39.24 53.84 -22.46 -35.69
67 85 30 0 0 15.11 18.82 35 50.47 -16.94 -35.65
68 85 40 0 0 13.73 16.17 31.2 47.2 -11.29 -35.66
69 85 55 0 0 11.87 12.62 26.09 42.18 -2.08 -35.93
70 85 70 0 0 10.32 9.7 21.78 37.29 7.66 -36.41
71 85 85 0 0 9.05 7.38 18.23 32.65 17.52 -37.03
72 85 100 0 0 8.13 5.77 15.67 28.82 26.05 -37.67
73 100 0 0 0 16.01 24.48 47.22 56.56 -37.98 -40.93
74 100 10 0 0 14.6 21.52 42.68 53.51 -33.11 -40.69
75 100 20 0 0 13.32 18.86 38.54 50.53 -28.27 -40.47
76 100 30 0 0 12.07 16.29 34.5 47.35 -22.92 -40.32
77 100 40 0 0 10.96 14 30.83 44.23 -17.41 -40.21
78 100 55 0 0 9.44 10.91 25.92 39.43 -8.53 -40.37
79 100 70 0 0 8.16 8.38 21.76 34.75 0.76 -40.75
80 100 85 0 0 7.12 6.35 18.35 30.28 10.28 -41.37
81 100 100 0 0 6.35 4.93 15.83 26.54 18.56 -42.01
82 0 0 10 0 71.59 74.72 50.55 89.26 -0.96 11.63
83 0 10 10 0 65.35 65.28 45.23 84.63 5.46 9.83
84 0 20 10 0 59.68 56.89 40.29 80.12 11.81 8.23
85 0 30 10 0 54.28 48.95 35.45 75.42 18.79 6.71
86 0 40 10 0 49.48 42.02 31.08 70.88 25.81 5.36
87 0 55 10 0 43.2 33.04 25.17 64.19 36.92 3.64
88 0 70 10 0 38.16 25.92 20.17 57.97 48.29 2.48
89 0 85 10 0 34.15 20.36 16.13 52.24 59.62 1.59
90 0 100 10 0 31.22 16.47 13.17 47.58 69.27 1.13
91 10 0 10 0 62.14 66.66 49.3 85.33 -4.9 6.27
92 10 10 10 0 56.83 58.33 44.1 80.92 1.45 4.81
93 10 20 10 0 51.86 50.79 39.32 76.55 7.7 3.36
94 10 30 10 0 47.12 43.68 34.7 72.02 14.45 1.91
95 10 40 10 0 42.96 37.48 30.43 67.63 21.39 0.77
96 10 55 10 0 37.52 29.48 24.77 61.2 32.27 -0.81
97 10 70 10 0 33.11 23.05 19.96 55.13 43.53 -1.99
98 10 85 10 0 29.63 18.07 16.06 49.58 54.74 -2.83
99 10 100 10 0 27.06 14.55 13.22 45.01 64.38 -3.42
100 20 0 10 0 53.87 59.41 48.01 81.52 -8.53 1.17
101 20 10 10 0 49.26 52.02 43.02 77.29 -2.42 -0.12
102 20 20 10 0 45 45.33 38.46 73.11 3.75 -1.42
103 20 30 10 0 40.88 38.98 33.94 68.74 10.35 -2.63
104 20 40 10 0 37.28 33.46 29.89 64.53 17.15 -3.73
105 20 55 10 0 32.54 26.29 24.42 58.31 27.81 -5.16
106 20 70 10 0 28.7 20.51 19.77 52.41 39 -6.27
107 20 85 10 0 25.61 15.98 16 46.95 50.05 -7.22
108 20 100 10 0 23.38 12.84 13.27 42.53 59.54 -7.85
109 30 0 10 0 46.25 52.73 46.82 77.71 -12.55 -3.99
110 30 10 10 0 42.32 46.15 42.01 73.64 -6.43 -5.13
111 30 20 10 0 38.64 40.26 37.58 69.65 -0.54 -6.2
112 30 30 10 0 35.15 34.64 33.27 65.46 6.05 -7.29
113 30 40 10 0 31.99 29.68 29.35 61.38 12.6 -8.29
114 30 55 10 0 27.95 23.32 24.07 55.41 23.12 -9.52
115 30 70 10 0 24.59 18.13 19.59 49.65 34.1 -10.65
116 30 85 10 0 21.94 14.11 15.97 44.39 44.97 -11.57
117 30 100 10 0 20.01 11.29 13.34 40.06 54.41 -12.29
118 40 0 10 0 39.66 46.83 45.69 74.08 -16.44 -8.91
119 40 10 10 0 36.27 41.03 41.05 70.2 -10.61 -9.85
120 40 20 10 0 33.19 35.83 36.83 66.39 -4.71 -10.79
121 40 30 10 0 30.16 30.82 32.61 62.35 1.67 -11.67
122 40 40 10 0 27.44 26.41 28.82 58.42 8.11 -12.52
123 40 55 10 0 23.97 20.72 23.78 52.65 18.51 -13.74
124 40 70 10 0 21.06 16.08 19.45 47.08 29.21 -14.8
125 40 85 10 0 18.76 12.46 15.95 41.94 40.01 -15.75
126 40 100 10 0 17.08 9.93 13.41 37.72 49.25 -16.53
127 55 0 10 0 31.25 39.21 44.16 68.9 -22.52 -15.99
128 55 10 10 0 28.57 34.36 39.8 65.25 -16.85 -16.76
129 55 20 10 0 26.09 29.99 35.71 61.65 -11.29 -17.4
130 55 30 10 0 23.74 25.86 31.77 57.9 -5.16 -18.07
131 55 40 10 0 21.59 22.16 28.18 54.2 1.04 -18.76
132 55 55 10 0 18.83 17.37 23.39 48.73 11.07 -19.78
133 55 70 10 0 16.53 13.45 19.32 43.43 21.61 -20.81
134 55 85 10 0 14.66 10.36 15.96 38.47 32.04 -21.75
135 55 100 10 0 13.3 8.2 13.53 34.39 41.14 -22.58
136 70 0 10 0 24.47 32.97 42.84 64.14 -28.84 -22.57
137 70 10 10 0 22.4 28.94 38.7 60.73 -23.37 -23.09
138 70 20 10 0 20.48 25.32 34.83 57.38 -18 -23.5
139 70 30 10 0 18.59 21.82 31.1 53.83 -12.15 -24.07
140 70 40 10 0 16.91 18.72 27.66 50.35 -6.14 -24.52
141 70 55 10 0 14.72 14.67 23.1 45.19 3.52 -25.34
142 70 70 10 0 12.86 11.3 19.2 40.08 13.73 -26.33
143 70 85 10 0 11.39 8.69 16.02 35.37 23.89 -27.24
144 70 100 10 0 10.28 6.82 13.69 31.39 32.79 -28.18
145 85 0 10 0 18.98 27.77 41.68 59.68 -35.36 -28.79
146 85 10 10 0 17.39 24.45 37.76 56.53 -30.14 -29.06
147 85 20 10 0 15.87 21.39 34.07 53.37 -25 -29.32
148 85 30 10 0 14.44 18.49 30.53 50.09 -19.35 -29.63
149 85 40 10 0 13.1 15.86 27.23 46.79 -13.58 -29.96
150 85 55 10 0 11.38 12.42 22.89 41.88 -4.25 -30.64
151 85 70 10 0 9.91 9.55 19.18 37.02 5.66 -31.54
152 85 85 10 0 8.72 7.29 16.1 32.45 15.57 -32.46
153 85 100 10 0 7.83 5.7 13.86 28.64 24.1 -33.38
154 100 0 10 0 15.01 23.87 40.78 55.96 -41.23 -34.06
155 100 10 10 0 13.71 21.01 37.01 52.96 -36.26 -34.2
156 100 20 10 0 12.53 18.44 33.52 50.02 -31.34 -34.28
157 100 30 10 0 11.38 15.94 30.07 46.9 -25.88 -34.41
158 100 40 10 0 10.32 13.69 26.91 43.78 -20.3 -34.6
159 100 55 10 0 8.92 10.7 22.75 39.08 -11.28 -35.21
160 100 70 10 0 7.75 8.23 19.16 34.47 -1.74 -35.92
161 100 85 10 0 6.78 6.25 16.2 30.02 7.95 -36.88
162 100 100 10 0 6.05 4.85 14.04 26.3 16.34 -37.88
163 0 0 20 0 69.91 73.43 43.41 88.65 -1.91 18.99
164 0 10 20 0 63.93 64.24 38.85 84.09 4.56 16.98
165 0 20 20 0 58.54 56.07 34.74 79.65 11.08 15.02
166 0 30 20 0 53.31 48.33 30.68 75.03 18 13.14
167 0 40 20 0 48.62 41.5 26.96 70.52 25.01 11.43
168 0 55 20 0 42.63 32.75 21.91 63.96 36.26 9.31
169 0 70 20 0 37.72 25.74 17.6 57.79 47.63 7.71
170 0 85 20 0 33.86 20.28 14.12 52.16 58.99 6.49
171 0 100 20 0 31.06 16.48 11.57 47.6 68.63 5.74
172 10 0 20 0 60.68 65.53 42.32 84.76 -5.83 13.63
173 10 10 20 0 55.54 57.38 37.94 80.39 0.53 11.83
174 10 20 20 0 50.81 50.05 33.96 76.1 6.88 10.02
175 10 30 20 0 46.3 43.16 30.02 71.67 13.67 8.37
176 10 40 20 0 42.26 37.09 26.48 67.35 20.55 6.78
177 10 55 20 0 37.02 29.23 21.59 60.99 31.56 4.82
178 10 70 20 0 32.72 22.9 17.44 54.96 42.87 3.21
179 10 85 20 0 29.3 17.96 14.06 49.44 54.04 1.95
180 10 100 20 0 26.86 14.54 11.62 44.99 63.64 1.1
181 20 0 20 0 52.6 58.5 41.29 81.02 -9.63 8.5
182 20 10 20 0 48.13 51.21 37.09 76.8 -3.39 6.8
183 20 20 20 0 44.05 44.72 33.26 72.71 2.71 5.21
184 20 30 20 0 40.13 38.52 29.43 68.4 9.5 3.68
185 20 40 20 0 36.58 33.06 25.95 64.21 16.21 2.29
186 20 55 20 0 32.04 26.03 21.29 58.07 27.05 0.38
187 20 70 20 0 28.35 20.39 17.31 52.28 38.17 -1.13
188 20 85 20 0 25.38 15.95 14.07 46.91 49.27 -2.45
189 20 100 20 0 23.2 12.83 11.68 42.51 58.78 -3.36
190 30 0 20 0 45.09 51.87 40.25 77.2 -13.64 3.26
191 30 10 20 0 41.31 45.5 36.23 73.22 -7.62 1.82
192 30 20 20 0 37.8 39.71 32.5 69.26 -1.55 0.41
193 30 30 20 0 34.42 34.23 28.88 65.14 4.93 -1.04
194 30 40 20 0 31.39 29.39 25.53 61.12 11.56 -2.3
195 30 55 20 0 27.49 23.11 21.01 55.19 22.27 -4.04
196 30 70 20 0 24.27 18.02 17.2 49.52 33.26 -5.6
197 30 85 20 0 21.69 14.04 14.03 44.29 44.21 -6.85
198 30 100 20 0 19.8 11.25 11.75 40 53.6 -7.88
199 40 0 20 0 38.62 46.13 39.35 73.63 -17.77 -1.72
200 40 10 20 0 35.32 40.39 35.46 69.74 -11.83 -3.08
201 40 20 20 0 32.34 35.29 31.87 65.97 -5.91 -4.33
202 40 30 20 0 29.45 30.41 28.31 62.01 0.47 -5.51
203 40 40 20 0 26.9 26.14 25.12 58.17 7.02 -6.67
204 40 55 20 0 23.5 20.52 20.79 52.42 17.41 -8.35
205 40 70 20 0 20.7 15.96 17.09 46.92 28.22 -9.85
206 40 85 20 0 18.47 12.38 14.03 41.82 39.03 -11.1
207 40 100 20 0 16.86 9.89 11.81 37.65 48.33 -12.1
208 55 0 20 0 30.26 38.57 38.12 68.44 -24.19 -9.02
209 55 10 20 0 27.67 33.79 34.35 64.8 -18.47 -10.02
210 55 20 20 0 25.36 29.59 31 61.3 -12.84 -11.03
211 55 30 20 0 23.1 25.52 27.61 57.58 -6.6 -11.98
212 55 40 20 0 21.04 21.91 24.57 53.94 -0.41 -12.98
213 55 55 20 0 18.4 17.2 20.49 48.51 9.82 -14.48
214 55 70 20 0 16.18 13.34 16.96 43.28 20.3 -15.82
215 55 85 20 0 14.39 10.29 14.08 38.35 30.94 -17.23
216 55 100 20 0 13.06 8.14 11.93 34.28 40.05 -18.28
217 70 0 20 0 23.52 32.36 36.94 63.64 -30.86 -15.68
218 70 10 20 0 21.57 28.47 33.45 60.32 -25.41 -16.44
219 70 20 20 0 19.73 24.9 30.24 56.97 -19.89 -17.31
220 70 30 20 0 17.96 21.51 27.04 53.5 -14.05 -18.05
221 70 40 20 0 16.38 18.49 24.14 50.09 -7.94 -18.83
222 70 55 20 0 14.25 14.46 20.22 44.88 1.91 -20.19
223 70 70 20 0 12.5 11.19 16.87 39.89 12.18 -21.46
224 70 85 20 0 11.07 8.58 14.14 35.15 22.49 -22.88
225 70 100 20 0 10.02 6.76 12.1 31.25 31.43 -23.99
226 85 0 20 0 18.08 27.22 35.96 59.18 -37.86 -22.01
227 85 10 20 0 16.57 23.95 32.66 56.04 -32.53 -22.64
228 85 20 20 0 15.15 21 29.57 52.95 -27.37 -23.18
229 85 30 20 0 13.78 18.15 26.56 49.68 -21.66 -23.83
230 85 40 20 0 12.56 15.61 23.77 46.46 -15.77 -24.4
231 85 55 20 0 10.91 12.21 20.06 41.55 -6.23 -25.59
232 85 70 20 0 9.51 9.4 16.86 36.75 3.68 -26.85
233 85 85 20 0 8.4 7.19 14.23 32.24 13.75 -28.14
234 85 100 20 0 7.55 5.62 12.26 28.44 22.41 -29.3
235 100 0 20 0 14.12 23.33 35.19 55.41 -44.26 -27.42
236 100 10 20 0 12.94 20.56 32.03 52.47 -39.15 -27.85
237 100 20 20 0 11.83 18.05 29.1 49.56 -34.12 -28.26
238 100 30 20 0 10.74 15.61 26.15 46.46 -28.64 -28.67
239 100 40 20 0 9.76 13.42 23.53 43.38 -22.91 -29.25
240 100 55 20 0 8.45 10.5 19.91 38.73 -13.81 -30.15
241 100 70 20 0 7.34 8.06 16.82 34.1 -4.08 -31.31
242 100 85 20 0 6.44 6.12 14.3 29.72 5.75 -32.66
243 100 100 20 0 5.75 4.76 12.4 26.03 14.21 -33.85
244 0 0 30 0 68.4 72.26 36.63 88.09 -2.76 26.91
245 0 10 30 0 62.62 63.24 32.87 83.57 3.83 24.52
246 0 20 30 0 57.41 55.29 29.47 79.21 10.27 22.26
247 0 30 30 0 52.34 47.66 26.08 74.61 17.32 19.99
248 0 40 30 0 47.81 40.96 22.98 70.15 24.4 17.92
249 0 55 30 0 42.03 32.43 18.77 63.7 35.59 15.32
250 0 70 30 0 37.31 25.57 15.16 57.63 46.99 13.24
251 0 85 30 0 33.51 20.17 12.17 52.03 58.3 11.61
252 0 100 30 0 30.79 16.43 10.02 47.53 67.9 10.49
253 10 0 30 0 59.28 64.47 35.73 84.21 -6.8 21.48
254 10 10 30 0 54.32 56.46 32.13 79.88 -0.32 19.27
255 10 20 30 0 49.76 49.34 28.84 75.66 5.95 17.17
256 10 30 30 0 45.42 42.59 25.58 71.28 12.85 15.12
257 10 40 30 0 41.46 36.58 22.57 66.96 19.81 13.21
258 10 55 30 0 36.44 28.94 18.54 60.73 30.79 10.69
259 10 70 30 0 32.29 22.74 15.04 54.8 42.06 8.68
260 10 85 30 0 29.02 17.9 12.17 49.38 53.28 7.04
261 10 100 30 0 26.63 14.51 10.09 44.95 62.9 5.81
262 20 0 30 0 51.27 57.5 34.92 80.46 -10.69 16.15
263 20 10 30 0 47.07 50.47 31.42 76.36 -4.41 14.27
264 20 20 30 0 43.13 44.08 28.22 72.28 1.84 12.36
265 20 30 30 0 39.32 38.04 25.09 68.05 8.5 10.44
266 20 40 30 0 35.97 32.71 22.23 63.93 15.42 8.64
267 20 55 30 0 31.59 25.84 18.3 57.88 26.22 6.32
268 20 70 30 0 27.96 20.23 14.92 52.09 37.43 4.31
269 20 85 30 0 25.06 15.85 12.18 46.77 48.51 2.53
270 20 100 30 0 22.95 12.78 10.13 42.43 57.97 1.33
271 30 0 30 0 43.91 51 34.05 76.68 -14.8 10.89
272 30 10 30 0 40.24 44.73 30.74 72.71 -8.72 9.05
273 30 20 30 0 36.93 39.16 27.69 68.86 -2.69 7.34
274 30 30 30 0 33.69 33.79 24.63 64.8 3.9 5.64
275 30 40 30 0 30.81 29.05 21.85 60.83 10.66 4.03
276 30 55 30 0 27.04 22.92 18.11 54.99 21.3 1.76
277 30 70 30 0 23.87 17.87 14.83 49.34 32.32 -0.21
278 30 85 30 0 21.39 13.95 12.17 44.17 43.33 -1.93
279 30 100 30 0 19.59 11.23 10.23 39.96 52.73 -3.24
280 40 0 30 0 37.53 45.35 33.32 73.12 -19.06 5.83
281 40 10 30 0 34.42 39.81 30.1 69.33 -13.11 4.22
282 40 20 30 0 31.54 34.79 27.13 65.58 -7.16 2.63
283 40 30 30 0 28.81 30.08 24.24 61.72 -0.73 1.06
284 40 40 30 0 26.3 25.84 21.56 57.89 5.78 -0.47
285 40 55 30 0 23.07 20.34 17.91 52.22 16.36 -2.57
286 40 70 30 0 20.36 15.84 14.76 46.76 27.21 -4.47
287 40 85 30 0 18.23 12.33 12.2 41.73 38.11 -6.22
288 40 100 30 0 16.65 9.87 10.31 37.61 47.36 -7.55
289 55 0 30 0 29.24 37.85 32.26 67.91 -25.75 -1.56
290 55 10 30 0 26.84 33.26 29.21 64.37 -19.99 -2.9
291 55 20 30 0 24.62 29.13 26.44 60.9 -14.26 -4.27
292 55 30 30 0 22.44 25.17 23.67 57.24 -8.14 -5.62
293 55 40 30 0 20.49 21.64 21.13 53.64 -1.8 -6.93
294 55 55 30 0 17.95 17 17.65 48.27 8.5 -8.81
295 55 70 30 0 15.83 13.21 14.7 43.07 19.13 -10.69
296 55 85 30 0 14.08 10.19 12.24 38.19 29.71 -12.44
297 55 100 30 0 12.83 8.11 10.42 34.2 38.88 -13.78
298 70 0 30 0 22.6 31.75 31.39 63.14 -32.86 -8.47
299 70 10 30 0 20.71 27.92 28.49 59.82 -27.35 -9.58
300 70 20 30 0 19 24.49 25.81 56.58 -21.88 -10.62
301 70 30 30 0 17.35 21.19 23.2 53.16 -15.84 -11.77
302 70 40 30 0 15.81 18.19 20.77 49.73 -9.67 -12.94
303 70 55 30 0 13.83 14.3 17.5 44.66 0.25 -14.67
304 70 70 30 0 12.12 11.04 14.63 39.66 10.58 -16.4
305 70 85 30 0 10.77 8.49 12.3 34.99 20.99 -18.14
306 70 100 30 0 9.77 6.71 10.58 31.13 29.96 -19.58
307 85 0 30 0 17.19 26.65 30.55 58.65 -40.34 -14.91
308 85 10 30 0 15.79 23.51 27.82 55.59 -35.04 -15.77
309 85 20 30 0 14.45 20.61 25.28 52.52 -29.77 -16.68
310 85 30 30 0 13.16 17.83 22.77 49.29 -24 -17.63
311 85 40 30 0 12 15.34 20.49 46.1 -18.02 -18.64
312 85 55 30 0 10.44 12.01 17.32 41.23 -8.37 -20.19
313 85 70 30 0 9.15 9.28 14.65 36.52 1.68 -21.85
314 85 85 30 0 8.07 7.09 12.38 32 11.84 -23.52
315 85 100 30 0 7.3 5.57 10.74 28.29 20.6 -24.99
316 100 0 30 0 13.27 22.8 29.94 54.86 -47.28 -20.47
317 100 10 30 0 12.15 20.07 27.27 51.91 -42.07 -21.19
318 100 20 30 0 11.13 17.62 24.86 49.04 -36.89 -21.95
319 100 30 30 0 10.15 15.3 22.45 46.04 -31.33 -22.62
320 100 40 30 0 9.23 13.15 20.24 42.99 -25.6 -23.48
321 100 55 30 0 8.01 10.3 17.25 38.38 -16.26 -24.93
322 100 70 30 0 6.99 7.94 14.64 33.85 -6.43 -26.42
323 100 85 30 0 6.14 6.04 12.48 29.52 3.51 -28.09
324 100 100 30 0 5.49 4.69 10.87 25.84 12.08 -29.63
325 0 0 40 0 66.97 71.17 30.57 87.57 -3.62 34.92
326 0 10 40 0 61.4 62.34 27.56 83.09 3.05 32.09
327 0 20 40 0 56.4 54.56 24.77 78.79 9.59 29.51
328 0 30 40 0 51.45 47.07 21.97 74.24 16.6 26.92
329 0 40 40 0 47.05 40.48 19.43 69.81 23.76 24.45
330 0 55 40 0 41.5 32.17 15.96 63.48 34.92 21.38
331 0 70 40 0 36.86 25.37 12.95 57.44 46.34 18.75
332 0 85 40 0 33.22 20.1 10.48 51.95 57.64 16.63
333 0 100 40 0 30.6 16.42 8.66 47.52 67.23 15.19
334 10 0 40 0 58 63.49 29.94 83.7 -7.67 29.25
335 10 10 40 0 53.24 55.69 26.96 79.44 -1.17 26.8
336 10 20 40 0 48.82 48.66 24.27 75.24 5.24 24.31
337 10 30 40 0 44.62 42.05 21.59 70.9 12.18 21.91
338 10 40 40 0 40.86 36.23 19.14 66.7 19.12 19.7
339 10 55 40 0 35.96 28.67 15.79 60.49 30.2 16.64
340 10 70 40 0 31.9 22.56 12.86 54.61 41.46 14.12
341 10 85 40 0 28.78 17.85 10.48 49.31 52.64 12.08
342 10 100 40 0 26.45 14.5 8.72 44.94 62.23 10.51
343 20 0 40 0 50.18 56.66 29.25 79.99 -11.57 23.96
344 20 10 40 0 46.02 49.71 26.42 75.89 -5.32 21.61
345 20 20 40 0 42.26 43.48 23.83 71.88 0.98 19.33
346 20 30 40 0 38.63 37.57 21.21 67.7 7.79 17.15
347 20 40 40 0 35.33 32.34 18.85 63.62 14.59 15.02
348 20 55 40 0 31.08 25.57 15.6 57.62 25.5 12.15
349 20 70 40 0 27.59 20.09 12.81 51.94 36.63 9.66
350 20 85 40 0 24.81 15.79 10.48 46.69 47.78 7.56
351 20 100 40 0 22.79 12.78 8.79 42.42 57.31 5.93
352 30 0 40 0 42.85 50.23 28.61 76.21 -15.88 18.48
353 30 10 40 0 39.39 44.14 25.88 72.32 -9.71 16.39
354 30 20 40 0 36.18 38.66 23.39 68.5 -3.59 14.31
355 30 30 40 0 33.06 33.4 20.88 64.49 3.02 12.27
356 30 40 40 0 30.23 28.74 18.61 60.55 9.71 10.25
357 30 55 40 0 26.6 22.69 15.46 54.75 20.52 7.53
358 30 70 40 0 23.59 17.79 12.75 49.24 31.52 5.17
359 30 85 40 0 21.17 13.91 10.5 44.1 42.57 3.02
360 30 100 40 0 19.38 11.19 8.86 39.9 51.96 1.31
361 40 0 40 0 36.53 44.61 28.05 72.64 -20.24 13.24
362 40 10 40 0 33.53 39.16 25.37 68.87 -14.19 11.34
363 40 20 40 0 30.85 34.37 22.96 65.25 -8.25 9.52
364 40 30 40 0 28.17 29.68 20.55 61.38 -1.75 7.59
365 40 40 40 0 25.77 25.55 18.35 57.61 4.77 5.75
366 40 55 40 0 22.66 20.15 15.32 52.01 15.4 3.17
367 40 70 40 0 20.06 15.73 12.69 46.62 26.34 0.81
368 40 85 40 0 17.97 12.27 10.56 41.64 37.15 -1.41
369 40 100 40 0 16.41 9.81 8.95 37.49 46.52 -3.13
370 55 0 40 0 28.37 37.26 27.21 67.47 -27.22 5.75
371 55 10 40 0 26.08 32.77 24.71 63.98 -21.39 4.08
372 55 20 40 0 23.91 28.7 22.41 60.51 -15.65 2.4
373 55 30 40 0 21.87 24.83 20.13 56.91 -9.36 0.75
374 55 40 40 0 19.98 21.38 18.04 53.36 -3.07 -0.89
375 55 55 40 0 17.55 16.83 15.15 48.05 7.28 -3.23
376 55 70 40 0 15.48 13.08 12.67 42.89 17.96 -5.57
377 55 85 40 0 13.84 10.14 10.6 38.09 28.66 -7.66
378 55 100 40 0 12.62 8.06 9.06 34.12 37.83 -9.38
379 70 0 40 0 21.75 31.19 26.46 62.67 -34.69 -1.26
380 70 10 40 0 19.98 27.48 24.1 59.41 -29.17 -2.67
381 70 20 40 0 18.36 24.1 21.91 56.18 -23.49 -4.1
382 70 30 40 0 16.74 20.84 19.72 52.78 -17.49 -5.54
383 70 40 40 0 15.32 17.96 17.76 49.45 -11.32 -7.01
384 70 55 40 0 13.4 14.11 15.01 44.39 -1.34 -9.2
385 70 70 40 0 11.79 10.93 12.63 39.46 9.13 -11.36
386 70 85 40 0 10.49 8.41 10.68 34.83 19.61 -13.52
387 70 100 40 0 9.54 6.65 9.19 31 28.64 -15.21
388 85 0 40 0 16.38 26.11 25.82 58.14 -42.67 -7.94
389 85 10 40 0 15.09 23.07 23.6 55.15 -37.24 -9.09
390 85 20 40 0 13.81 20.22 21.49 52.09 -31.88 -10.32
391 85 30 40 0 12.6 17.51 19.42 48.9 -26 -11.58
392 85 40 40 0 11.53 15.11 17.51 45.79 -20.02 -12.75
393 85 55 40 0 10.04 11.85 14.92 40.97 -10.31 -14.87
394 85 70 40 0 8.82 9.15 12.64 36.27 -0.06 -16.89
395 85 85 40 0 7.8 7 10.76 31.81 10.12 -18.98
396 85 100 40 0 7.04 5.49 9.33 28.08 18.92 -20.72
397 100 0 40 0 12.54 22.33 25.36 54.38 -50.05 -13.62
398 100 10 40 0 11.49 19.67 23.17 51.47 -44.74 -14.64
399 100 20 40 0 10.53 17.29 21.16 48.63 -39.57 -15.64
400 100 30 40 0 9.59 14.96 19.14 45.58 -33.79 -16.7
401 100 40 40 0 8.75 12.9 17.36 42.61 -27.97 -17.89
402 100 55 40 0 7.6 10.12 14.82 38.05 -18.58 -19.66
403 100 70 40 0 6.63 7.78 12.65 33.51 -8.58 -21.67
404 100 85 40 0 5.85 5.95 10.83 29.28 1.35 -23.58
405 100 100 40 0 5.26 4.63 9.48 25.66 10.04 -25.38
406 0 0 55 0 65.16 69.71 22.58 86.85 -4.56 47.49
407 0 10 55 0 59.88 61.15 20.44 82.46 2.18 44.15
408 0 20 55 0 54.99 53.52 18.43 78.18 8.69 41.04
409 0 30 55 0 50.31 46.26 16.46 73.71 15.84 37.83
410 0 40 55 0 46.07 39.85 14.61 69.36 22.93 34.87
411 0 55 55 0 40.68 31.68 12.13 63.08 34.15 30.81
412 0 70 55 0 36.33 25.14 9.94 57.21 45.57 27.44
413 0 85 55 0 32.86 20 8.12 51.84 56.83 24.63
414 0 100 55 0 30.32 16.39 6.78 47.49 66.37 22.53
415 10 0 55 0 56.41 62.21 22.14 83.02 -8.66 41.75
416 10 10 55 0 51.78 54.58 20.08 78.8 -2.2 38.58
417 10 20 55 0 47.62 47.79 18.12 74.69 4.32 35.7
418 10 30 55 0 43.55 41.33 16.24 70.41 11.18 32.66
419 10 40 55 0 39.91 35.61 14.46 66.22 18.23 29.84
420 10 55 55 0 35.28 28.32 12.03 60.17 29.28 26.07
421 10 70 55 0 31.45 22.38 9.92 54.43 40.61 22.73
422 10 85 55 0 28.35 17.7 8.15 49.13 51.76 19.84
423 10 100 55 0 26.17 14.47 6.85 44.9 61.22 17.73
424 20 0 55 0 48.67 55.49 21.74 79.32 -12.77 36.14
425 20 10 55 0 44.76 48.74 19.72 75.29 -6.35 33.29
426 20 20 55 0 41.12 42.67 17.86 71.33 -0.07 30.48
427 20 30 55 0 37.66 36.93 15.99 67.22 6.78 27.75
428 20 40 55 0 34.54 31.85 14.29 63.22 13.66 25.12
429 20 55 55 0 30.5 25.28 11.96 57.35 24.52 21.39
430 20 70 55 0 27.14 19.9 9.9 51.72 35.77 18.14
431 20 85 55 0 24.48 15.7 8.18 46.58 46.87 15.31
432 20 100 55 0 22.53 12.75 6.92 42.38 56.34 13.12
433 30 0 55 0 41.52 49.2 21.33 75.57 -17.13 30.49
434 30 10 55 0 38.17 43.26 19.4 71.73 -11.01 27.83
435 30 20 55 0 35.13 37.91 17.58 67.96 -4.77 25.3
436 30 30 55 0 32.14 32.81 15.83 64.01 1.83 22.61
437 30 40 55 0 29.45 28.26 14.15 60.12 8.64 20.14
438 30 55 55 0 25.97 22.37 11.86 54.42 19.36 16.65
439 30 70 55 0 23.09 17.57 9.88 48.98 30.44 13.46
440 30 85 55 0 20.8 13.8 8.23 43.94 41.5 10.6
441 30 100 55 0 19.11 11.15 7.02 39.83 50.88 8.3
442 40 0 55 0 35.28 43.69 21 72.02 -21.77 25.02
443 40 10 55 0 32.43 38.38 19.09 68.3 -15.63 22.57
444 40 20 55 0 29.89 33.72 17.37 64.74 -9.64 20.24
445 40 30 55 0 27.33 29.17 15.63 60.93 -3.16 17.78
446 40 40 55 0 25.05 25.14 14 57.21 3.48 15.5
447 40 55 55 0 22.09 19.87 11.81 51.69 14.15 12.1
448 40 70 55 0 19.63 15.59 9.9 46.43 25.05 9
449 40 85 55 0 17.63 12.17 8.27 41.49 36.01 6.2
450 40 100 55 0 16.14 9.77 7.08 37.42 45.32 3.89
451 55 0 55 0 27.22 36.43 20.47 66.84 -29.09 17.18
452 55 10 55 0 25.05 32.07 18.67 63.4 -23.21 15.03
453 55 20 55 0 23.03 28.14 16.98 60.01 -17.41 12.99
