data/tests/calibration.ccmx
CCMX   

DESCRIPTOR "ColorHug & LCD"
KEYWORD "INSTRUMENT"
INSTRUMENT "Huey"
DISPLAY "Factory Calibration"
REFERENCE "ColorMunki"
ORIGINATOR "cd-self-test"
TYPE_LCD "YES"
TYPE_LED "YES"
TYPE_CRT "YES"
TYPE_PROJECTOR "YES"
TYPE_FACTORY "YES"
COLOR_REP "XYZ"

NUMBER_OF_FIELDS 3
BEGIN_DATA_FORMAT
XYZ_X XYZ_Y XYZ_Z 
END_DATA_FORMAT

NUMBER_OF_SETS 3
BEGIN_DATA
1.3139 0.21794 0.89224 
0.51274 2.9866 -0.54755 
-0.66611 -1.8156 5.9938 
END_DATA
