data/tests/measured.ti3
CTI3   
ORIGINATOR	"ColorHug Factory"
CREATED	"Tue Apr 09 21:14:06 2013"
DESCRIPTOR	"Calibration Target chart information 3"
DEVICE_CLASS	"DISPLAY"
COLOR_REP	"RGB_XYZ"
TARGET_INSTRUMENT	"Hughski ColorHug"
INSTRUMENT_TYPE_SPECTRAL	"NO"
NORMALIZED_TO_Y_100	"NO"
NUMBER_OF_FIELDS	7
NUMBER_OF_SETS	15
BEGIN_DATA_FORMAT
 SAMPLE_ID	RGB_R	RGB_G	RGB_B	XYZ_X	XYZ_Y	XYZ_Z
END_DATA_FORMAT
BEGIN_DATA
 1	0	0	0	0.2288818359	0.3204345703	0.3662109375
 2	1	1	1	35.70556641	40.23742676	53.87878418
 3	1	0	0	21.14868164	3.021240234	3.707885742
 4	0	1	0	13.04626465	27.96936035	13.00048828
 5	0	0	1	1.14440918	9.704589844	37.49084473
 6	0	0	0	0.2288818359	0.3204345703	0.3662109375
 7	1	1	1	35.75134277	40.28320312	53.92456055
 8	1	0	0	21.28601074	3.021240234	3.707885742
 9	0	1	0	13.04626465	27.96936035	13.00048828
 10	0	0	1	1.14440918	9.750366211	37.76550293
 11	0	0	0	0.2288818359	0.3204345703	0.3662109375
 12	1	1	1	35.70556641	40.28320312	54.01611328
 13	1	0	0	21.14868164	3.021240234	3.707885742
 14	0	1	0	13.04626465	28.10668945	13.00048828
 15	0	0	1	1.14440918	9.750366211	37.58239746
END_DATA
