data/tests/normalised.ti3
CTI3
DESCRIPTOR	"Calibration Target chart information 3"
DEVICE_CLASS	"DISPLAY"
COLOR_REP	"RGB_XYZ"
LUMINANCE_XYZ_CDM2	"62.015533 41.267395 48.168182"
NORMALIZED_TO_Y_100	"YES"
NUMBER_OF_FIELDS	7
NUMBER_OF_SETS	2
BEGIN_DATA_FORMAT
 SAMPLE_ID	RGB_R	RGB_G	RGB_B	XYZ_X	XYZ_Y	XYZ_Z
END_DATA_FORMAT
BEGIN_DATA
 1	0	0	0	0.000000000	0.000000000	0.000000000
 2	100	100	100	145.4646018	99.88938053	116.5929204
END_DATA
