data/tests/raw.ti3
CTI3
DESCRIPTOR	"Calibration Target chart information 3"
ORIGINATOR	"cd-self-test"
DEVICE_CLASS	"DISPLAY"
COLOR_REP	"RGB_XYZ"
TARGET_INSTRUMENT	"huey"
INSTRUMENT_TYPE_SPECTRAL	"NO"
NORMALIZED_TO_Y_100	"NO"
NUMBER_OF_FIELDS	7
NUMBER_OF_SETS	5
BEGIN_DATA_FORMAT
 SAMPLE_ID	RGB_R	RGB_G	RGB_B	XYZ_X	XYZ_Y	XYZ_Z
END_DATA_FORMAT
BEGIN_DATA
 1	0	0	0	0.000000000	0.000000000	0.000000000
 2	1.00	1.00	1.00	145.4646018	99.88938053	116.5929204
 3	1.00	0	0	96.12831858	9.402654867	13.9380531
 4	0	1.00	0	50	71.12831858	32.63274336
 5	0	0	1.00	2.212389381	18.69469027	69.46902655
END_DATA
