data/tests/reference.ti3
CTI3
DESCRIPTOR	"Calibration Target chart information 3"
DEVICE_CLASS	"DISPLAY"
COLOR_REP	"RGB_XYZ"
TARGET_INSTRUMENT	"X-Rite ColorMunki"
INSTRUMENT_TYPE_SPECTRAL	"NO"
NORMALIZED_TO_Y_100	"NO"
NUMBER_OF_FIELDS	7
NUMBER_OF_SETS	15
BEGIN_DATA_FORMAT
 SAMPLE_ID	RGB_R	RGB_G	RGB_B	XYZ_X	XYZ_Y	XYZ_Z
END_DATA_FORMAT
BEGIN_DATA
1	0	0	0	0.037283	0.014069	0.045725
2	1.00	1.00	1.00	110.997152	103.345846	145.076035
3	1.00	0	0	46.899411	23.246481	1.583159
4	0	1.00	0	37.559322	71.071752	12.609930
5	0	0	1.00	24.778739	8.031905	131.390203
6	0	0	0	0.034383	0.014343	0.029142
7	1.00	1.00	1.00	111.666089	103.780372	147.480965
8	1.00	0	0	46.794361	23.178872	1.548408
9	0	1.00	0	37.635832	71.256156	12.607075
10	0	0	1.00	24.748792	8.008723	131.279910
11	0	0	0	0.031477	0.013837	0.027300
12	1.00	1.00	1.00	111.168083	103.346949	146.677326
13	1.00	0	0	46.909107	23.201106	1.518199
14	0	1.00	0	37.686631	71.252436	12.646878
15	0	0	1.00	24.651694	7.955205	130.853723
END_DATA
