data/tests/test.ccss
CCSS   

DESCRIPTOR "Colorimeter Calibration Spectral Set"
ORIGINATOR "cd-self-test"
CREATED "Tue Jan 07 00:00:00 2014"
KEYWORD "DISPLAY"
DISPLAY "test display model"
KEYWORD "TECHNOLOGY"
TECHNOLOGY "LCD"
KEYWORD "DISPLAY_TYPE_REFRESH"
DISPLAY_TYPE_REFRESH "NO"
KEYWORD "SPECTRAL_BANDS"
SPECTRAL_BANDS "118"
KEYWORD "SPECTRAL_START_NM"
SPECTRAL_START_NM "350.000000"
KEYWORD "SPECTRAL_END_NM"
SPECTRAL_END_NM "740.000000"

NUMBER_OF_FIELDS 119
BEGIN_DATA_FORMAT
SAMPLE_ID SPEC_350 SPEC_353 SPEC_357 SPEC_360 SPEC_363 SPEC_367 SPEC_370 SPEC_373 SPEC_377 SPEC_380 SPEC_383 SPEC_387 SPEC_390 SPEC_393 SPEC_397 SPEC_400 SPEC_403 SPEC_407 SPEC_410 SPEC_413 SPEC_417 SPEC_420 SPEC_423 SPEC_427 SPEC_430 SPEC_433 SPEC_437 SPEC_440 SPEC_443 SPEC_447 SPEC_450 SPEC_453 SPEC_457 SPEC_460 SPEC_463 SPEC_467 SPEC_470 SPEC_473 SPEC_477 SPEC_480 SPEC_483 SPEC_487 SPEC_490 SPEC_493 SPEC_497 SPEC_500 SPEC_503 SPEC_507 SPEC_510 SPEC_513 SPEC_517 SPEC_520 SPEC_523 SPEC_527 SPEC_530 SPEC_533 SPEC_537 SPEC_540 SPEC_543 SPEC_547 SPEC_550 SPEC_553 SPEC_557 SPEC_560 SPEC_563 SPEC_567 SPEC_570 SPEC_573 SPEC_577 SPEC_580 SPEC_583 SPEC_587 SPEC_590 SPEC_593 SPEC_597 SPEC_600 SPEC_603 SPEC_607 SPEC_610 SPEC_613 SPEC_617 SPEC_620 SPEC_623 SPEC_627 SPEC_630 SPEC_633 SPEC_637 SPEC_640 SPEC_643 SPEC_647 SPEC_650 SPEC_653 SPEC_657 SPEC_660 SPEC_663 SPEC_667 SPEC_670 SPEC_673 SPEC_677 SPEC_680 SPEC_683 SPEC_687 SPEC_690 SPEC_693 SPEC_697 SPEC_700 SPEC_703 SPEC_707 SPEC_710 SPEC_713 SPEC_717 SPEC_720 SPEC_723 SPEC_727 SPEC_730 SPEC_733 SPEC_737 SPEC_740 
END_DATA_FORMAT

NUMBER_OF_SETS 2
BEGIN_DATA
1 0.01 0.02 0.03 0.03 0.04 0.05 0.06 0.07 0.08 0.08 0.09 0.10 0.11 0.12 0.13 0.14 0.14 0.15 0.16 0.17 0.18 0.19 0.19 0.20 0.21 0.22 0.23 0.24 0.25 0.25 0.26 0.27 0.28 0.29 0.30 0.31 0.31 0.32 0.33 0.34 0.35 0.36 0.36 0.37 0.38 0.39 0.40 0.41 0.42 0.42 0.43 0.44 0.45 0.46 0.47 0.47 0.48 0.49 0.50 0.51 0.52 0.53 0.53 0.54 0.55 0.56 0.57 0.58 0.58 0.59 0.60 0.61 0.62 0.63 0.64 0.64 0.65 0.66 0.67 0.68 0.69 0.69 0.70 0.71 0.72 0.73 0.74 0.75 0.75 0.76 0.77 0.78 0.79 0.80 0.81 0.81 0.82 0.83 0.84 0.85 0.86 0.86 0.87 0.88 0.89 0.90 0.91 0.92 0.92 0.93 0.94 0.95 0.96 0.97 0.97 0.98 0.99 1.00
2 0.99 0.98 0.97 0.97 0.96 0.95 0.94 0.93 0.92 0.92 0.91 0.90 0.89 0.88 0.87 0.86 0.86 0.85 0.84 0.83 0.82 0.81 0.81 0.80 0.79 0.78 0.77 0.76 0.75 0.75 0.74 0.73 0.72 0.71 0.70 0.69 0.69 0.68 0.67 0.66 0.65 0.64 0.64 0.63 0.62 0.61 0.60 0.59 0.58 0.58 0.57 0.56 0.55 0.54 0.53 0.53 0.52 0.51 0.50 0.49 0.48 0.47 0.47 0.46 0.45 0.44 0.43 0.42 0.42 0.41 0.40 0.39 0.38 0.37 0.36 0.36 0.35 0.34 0.33 0.32 0.31 0.31 0.30 0.29 0.28 0.27 0.26 0.25 0.25 0.24 0.23 0.22 0.21 0.20 0.19 0.19 0.18 0.17 0.16 0.15 0.14 0.14 0.13 0.12 0.11 0.10 0.09 0.08 0.08 0.07 0.06 0.05 0.04 0.03 0.03 0.02 0.01 0.00 
END_DATA
